; generated by Slic3r Prusa Edition 1.39.2 on 2020-12-21 at 19:46:28

; 

; external perimeters extrusion width = 0.45mm
; perimeters extrusion width = 0.45mm
; infill extrusion width = 0.45mm
; solid infill extrusion width = 0.45mm
; top infill extrusion width = 0.40mm
; first layer extrusion width = 0.42mm

M107
M115 U3.1.3-RC1 ; tell printer latest fw version
M201 X1000 Y1000 Z200 E5000 ; sets maximum accelerations, mm/sec^2
M203 X200 Y200 Z12 E120 ; sets maximum feedrates, mm/sec
M204 S1250 T1250 ; sets acceleration (S) and retract acceleration (T)
M205 X10 Y10 Z0.4 E2.5 ; sets the jerk limits, mm/sec
M205 S0 T0 ; sets the minimum extruding and travel feed rate, mm/sec
M83  ; extruder relative mode
M104 S215 ; set extruder temp
M140 S60 ; set bed temp
M190 S60 ; wait for bed temp
M109 S215 ; wait for extruder temp
G28 W ; home all without mesh bed level
G80 ; mesh bed leveling
G1 Y-3.0 F1000.0 ; go outside print area
G92 E0.0
G1 X60.0 E9.0  F1000.0 ; intro line
G1 X100.0 E12.5  F1000.0 ; intro line
G92 E0.0
M221 S95
M900 K30; Filament gcode
G21 ; set units to millimeters
G90 ; use absolute coordinates
M83 ; use relative distances for extrusion
;BEFORE_LAYER_CHANGE
;0.2


G1 E-0.80000 F2100.00000
G1 Z0.600 F10200.000
;AFTER_LAYER_CHANGE
;0.2
G1 X97.583 Y66.225
G1 Z0.200
G1 E0.80000 F2100.00000
M204 S1000
G1 F1800
G1 X98.527 Y66.026 E0.03024
G1 X151.239 Y66.026 E1.65276
G1 X152.127 Y66.199 E0.02837
G1 X152.886 Y66.692 E0.02837
G1 X153.406 Y67.433 E0.02837
G1 X153.611 Y68.314 E0.02837
G1 X153.608 Y89.151 E0.65333
G1 X153.479 Y89.788 E0.02036
G1 X153.183 Y90.366 E0.02036
G1 X152.742 Y90.842 E0.02036
G1 X152.188 Y91.181 E0.02036
G1 X151.244 Y91.380 E0.03024
G1 X98.482 Y91.379 E1.65432
G1 X97.819 Y91.269 E0.02107
G1 X97.210 Y90.976 E0.02119
G1 X96.711 Y90.527 E0.02107
G1 X96.356 Y89.952 E0.02119
G1 X96.158 Y89.027 E0.02966
G1 X96.161 Y68.281 E0.65047
G1 X96.284 Y67.639 E0.02048
G1 X96.579 Y67.053 E0.02060
G1 X97.023 Y66.569 E0.02060
G1 X97.532 Y66.256 E0.01871
G1 F8160
G1 X98.527 Y66.026 E-0.24968
G1 X100.614 Y66.026 E-0.51032
G1 E-0.04000 F2100.00000
G1 Z0.800 F10200.000
G1 X99.123 Y68.990
G1 Z0.200
G1 E0.80000 F2100.00000
G1 F1800
G1 X150.648 Y68.990 E1.61556
G1 X150.648 Y88.416 E0.60908
G1 X99.123 Y88.416 E1.61556
G1 X99.123 Y69.050 E0.60720
G1 X98.745 Y68.613 F10200.000
G1 F1800
G1 X151.025 Y68.613 E1.63920
G1 X151.025 Y88.793 E0.63273
G1 X98.745 Y88.793 E1.63920
G1 X98.745 Y68.673 E0.63085
G1 X99.142 Y68.662 F10200.000
G1 F8160
G1 X101.854 Y68.669 E-0.76000
G1 E-0.04000 F2100.00000
G1 Z0.800 F10200.000
G1 X100.000 Y88.303
G1 Z0.200
G1 E0.80000 F2100.00000
G1 F1800
G1 X99.405 Y87.708 E0.02643
G1 X99.405 Y87.173 E0.01681
G1 X100.365 Y88.133 E0.04266
G1 X100.900 Y88.133 E0.01681
G1 X99.405 Y86.639 E0.06643
G1 X99.405 Y86.104 E0.01681
G1 X101.434 Y88.133 E0.09020
G1 X101.969 Y88.133 E0.01681
G1 X99.405 Y85.569 E0.11397
G1 X99.405 Y85.035 E0.01681
G1 X102.504 Y88.133 E0.13774
G1 X103.038 Y88.133 E0.01681
G1 X99.405 Y84.500 E0.16151
G1 X99.405 Y83.965 E0.01681
G1 X103.573 Y88.133 E0.18527
G1 X104.107 Y88.133 E0.01681
G1 X99.405 Y83.431 E0.20904
G1 X99.405 Y82.896 E0.01681
G1 X104.642 Y88.133 E0.23281
G1 X105.177 Y88.133 E0.01681
G1 X99.405 Y82.361 E0.25658
G1 X99.405 Y81.827 E0.01681
G1 X105.711 Y88.133 E0.28035
G1 X106.246 Y88.133 E0.01681
G1 X99.405 Y81.292 E0.30412
G1 X99.405 Y80.757 E0.01681
G1 X106.781 Y88.133 E0.32789
G1 X107.315 Y88.133 E0.01681
G1 X99.405 Y80.223 E0.35166
G1 X99.405 Y79.688 E0.01681
G1 X107.850 Y88.133 E0.37543
G1 X108.385 Y88.133 E0.01681
G1 X99.405 Y79.153 E0.39920
G1 X99.405 Y78.619 E0.01681
G1 X108.919 Y88.133 E0.42297
G1 X109.454 Y88.133 E0.01681
G1 X99.405 Y78.084 E0.44673
G1 X99.405 Y77.550 E0.01681
G1 X109.989 Y88.133 E0.47050
G1 X110.523 Y88.133 E0.01681
G1 X99.405 Y77.015 E0.49427
G1 X99.405 Y76.480 E0.01681
G1 X111.058 Y88.133 E0.51804
G1 X111.593 Y88.133 E0.01681
G1 X99.405 Y75.946 E0.54181
G1 X99.405 Y75.411 E0.01681
G1 X112.127 Y88.133 E0.56558
G1 X112.662 Y88.133 E0.01681
G1 X99.405 Y74.876 E0.58935
G1 X99.405 Y74.342 E0.01681
G1 X113.197 Y88.133 E0.61312
G1 X113.731 Y88.133 E0.01681
G1 X99.405 Y73.807 E0.63689
G1 X99.405 Y73.272 E0.01681
G1 X114.266 Y88.133 E0.66066
G1 X114.801 Y88.133 E0.01681
G1 X99.405 Y72.738 E0.68443
G1 X99.405 Y72.203 E0.01681
G1 X115.335 Y88.133 E0.70819
G1 X115.870 Y88.133 E0.01681
G1 X99.405 Y71.668 E0.73196
G1 X99.405 Y71.134 E0.01681
G1 X116.405 Y88.133 E0.75573
G1 X116.939 Y88.133 E0.01681
G1 X99.405 Y70.599 E0.77950
G1 X99.405 Y70.064 E0.01681
G1 X117.474 Y88.133 E0.80327
G1 X118.009 Y88.133 E0.01681
G1 X99.405 Y69.530 E0.82704
G1 X99.405 Y69.273 E0.00808
G1 X99.683 Y69.273 E0.00873
G1 X118.543 Y88.133 E0.83847
G1 X119.078 Y88.133 E0.01681
G1 X100.218 Y69.273 E0.83847
G1 X100.752 Y69.273 E0.01681
G1 X119.613 Y88.133 E0.83847
G1 X120.147 Y88.133 E0.01681
G1 X101.287 Y69.273 E0.83847
G1 X101.822 Y69.273 E0.01681
G1 X120.682 Y88.133 E0.83847
G1 X121.216 Y88.133 E0.01681
G1 X102.356 Y69.273 E0.83847
G1 X102.891 Y69.273 E0.01681
G1 X121.751 Y88.133 E0.83847
G1 X122.286 Y88.133 E0.01681
G1 X103.426 Y69.273 E0.83847
G1 X103.960 Y69.273 E0.01681
G1 X122.820 Y88.133 E0.83847
G1 X123.355 Y88.133 E0.01681
G1 X104.495 Y69.273 E0.83847
G1 X105.029 Y69.273 E0.01681
G1 X123.890 Y88.133 E0.83847
G1 X124.424 Y88.133 E0.01681
G1 X105.564 Y69.273 E0.83847
G1 X106.099 Y69.273 E0.01681
G1 X124.959 Y88.133 E0.83847
G1 X125.494 Y88.133 E0.01681
G1 X106.633 Y69.273 E0.83847
G1 X107.168 Y69.273 E0.01681
G1 X126.028 Y88.133 E0.83847
G1 X126.563 Y88.133 E0.01681
G1 X107.703 Y69.273 E0.83847
G1 X108.237 Y69.273 E0.01681
G1 X127.098 Y88.133 E0.83847
G1 X127.632 Y88.133 E0.01681
G1 X108.772 Y69.273 E0.83847
G1 X109.307 Y69.273 E0.01681
G1 X128.167 Y88.133 E0.83847
G1 X128.702 Y88.133 E0.01681
G1 X109.841 Y69.273 E0.83847
G1 X110.376 Y69.273 E0.01681
G1 X129.236 Y88.133 E0.83847
G1 X129.771 Y88.133 E0.01681
G1 X110.911 Y69.273 E0.83847
G1 X111.445 Y69.273 E0.01681
G1 X130.306 Y88.133 E0.83847
G1 X130.840 Y88.133 E0.01681
G1 X111.980 Y69.273 E0.83847
G1 X112.515 Y69.273 E0.01681
G1 X131.375 Y88.133 E0.83847
G1 X131.910 Y88.133 E0.01681
G1 X113.049 Y69.273 E0.83847
G1 X113.584 Y69.273 E0.01681
G1 X132.444 Y88.133 E0.83847
G1 X132.979 Y88.133 E0.01681
G1 X114.119 Y69.273 E0.83847
G1 X114.653 Y69.273 E0.01681
G1 X133.514 Y88.133 E0.83847
G1 X134.048 Y88.133 E0.01681
G1 X115.188 Y69.273 E0.83847
G1 X115.723 Y69.273 E0.01681
G1 X134.583 Y88.133 E0.83847
G1 X135.118 Y88.133 E0.01681
G1 X116.257 Y69.273 E0.83847
G1 X116.792 Y69.273 E0.01681
G1 X135.652 Y88.133 E0.83847
G1 X136.187 Y88.133 E0.01681
G1 X117.327 Y69.273 E0.83847
G1 X117.861 Y69.273 E0.01681
G1 X136.722 Y88.133 E0.83847
G1 X137.256 Y88.133 E0.01681
G1 X118.396 Y69.273 E0.83847
G1 X118.931 Y69.273 E0.01681
G1 X137.791 Y88.133 E0.83847
G1 X138.325 Y88.133 E0.01681
G1 X119.465 Y69.273 E0.83847
G1 X120.000 Y69.273 E0.01681
G1 X138.860 Y88.133 E0.83847
G1 X139.395 Y88.133 E0.01681
G1 X120.535 Y69.273 E0.83847
G1 X121.069 Y69.273 E0.01681
G1 X139.929 Y88.133 E0.83847
G1 X140.464 Y88.133 E0.01681
G1 X121.604 Y69.273 E0.83847
G1 X122.138 Y69.273 E0.01681
G1 X140.999 Y88.133 E0.83847
G1 X141.533 Y88.133 E0.01681
G1 X122.673 Y69.273 E0.83847
G1 X123.208 Y69.273 E0.01681
G1 X142.068 Y88.133 E0.83847
G1 X142.603 Y88.133 E0.01681
G1 X123.742 Y69.273 E0.83847
G1 X124.277 Y69.273 E0.01681
G1 X143.137 Y88.133 E0.83847
G1 X143.672 Y88.133 E0.01681
G1 X124.812 Y69.273 E0.83847
G1 X125.346 Y69.273 E0.01681
G1 X144.207 Y88.133 E0.83847
G1 X144.741 Y88.133 E0.01681
G1 X125.881 Y69.273 E0.83847
G1 X126.416 Y69.273 E0.01681
G1 X145.276 Y88.133 E0.83847
G1 X145.811 Y88.133 E0.01681
G1 X126.950 Y69.273 E0.83847
G1 X127.485 Y69.273 E0.01681
G1 X146.345 Y88.133 E0.83847
G1 X146.880 Y88.133 E0.01681
G1 X128.020 Y69.273 E0.83847
G1 X128.554 Y69.273 E0.01681
G1 X147.415 Y88.133 E0.83847
G1 X147.949 Y88.133 E0.01681
G1 X129.089 Y69.273 E0.83847
G1 X129.624 Y69.273 E0.01681
G1 X148.484 Y88.133 E0.83847
G1 X149.019 Y88.133 E0.01681
G1 X130.158 Y69.273 E0.83847
G1 X130.693 Y69.273 E0.01681
G1 X149.553 Y88.133 E0.83847
G1 X150.088 Y88.133 E0.01681
G1 X131.228 Y69.273 E0.83847
G1 X131.762 Y69.273 E0.01681
G1 X150.366 Y87.876 E0.82704
G1 X150.366 Y87.341 E0.01681
G1 X132.297 Y69.273 E0.80327
G1 X132.832 Y69.273 E0.01681
G1 X150.366 Y86.807 E0.77951
G1 X150.366 Y86.272 E0.01681
G1 X133.366 Y69.273 E0.75574
G1 X133.901 Y69.273 E0.01681
G1 X150.366 Y85.737 E0.73197
G1 X150.366 Y85.203 E0.01681
G1 X134.436 Y69.273 E0.70820
G1 X134.970 Y69.273 E0.01681
G1 X150.366 Y84.668 E0.68443
G1 X150.366 Y84.133 E0.01681
G1 X135.505 Y69.273 E0.66066
G1 X136.040 Y69.273 E0.01681
G1 X150.366 Y83.599 E0.63689
G1 X150.366 Y83.064 E0.01681
G1 X136.574 Y69.273 E0.61312
G1 X137.109 Y69.273 E0.01681
G1 X150.366 Y82.529 E0.58935
G1 X150.366 Y81.995 E0.01681
G1 X137.644 Y69.273 E0.56558
G1 X138.178 Y69.273 E0.01681
G1 X150.366 Y81.460 E0.54181
G1 X150.366 Y80.925 E0.01681
G1 X138.713 Y69.273 E0.51804
G1 X139.247 Y69.273 E0.01681
G1 X150.366 Y80.391 E0.49428
G1 X150.366 Y79.856 E0.01681
G1 X139.782 Y69.273 E0.47051
G1 X140.317 Y69.273 E0.01681
G1 X150.366 Y79.321 E0.44674
G1 X150.366 Y78.787 E0.01681
G1 X140.851 Y69.273 E0.42297
G1 X141.386 Y69.273 E0.01681
G1 X150.366 Y78.252 E0.39920
G1 X150.366 Y77.717 E0.01681
G1 X141.921 Y69.273 E0.37543
G1 X142.455 Y69.273 E0.01681
G1 X150.366 Y77.183 E0.35166
G1 X150.366 Y76.648 E0.01681
G1 X142.990 Y69.273 E0.32789
G1 X143.525 Y69.273 E0.01681
G1 X150.366 Y76.113 E0.30412
G1 X150.366 Y75.579 E0.01681
G1 X144.059 Y69.273 E0.28035
G1 X144.594 Y69.273 E0.01681
G1 X150.366 Y75.044 E0.25658
G1 X150.366 Y74.510 E0.01681
G1 X145.129 Y69.273 E0.23282
G1 X145.663 Y69.273 E0.01681
G1 X150.366 Y73.975 E0.20905
G1 X150.366 Y73.440 E0.01681
G1 X146.198 Y69.273 E0.18528
G1 X146.733 Y69.273 E0.01681
G1 X150.366 Y72.906 E0.16151
G1 X150.366 Y72.371 E0.01681
G1 X147.267 Y69.273 E0.13774
G1 X147.802 Y69.273 E0.01681
G1 X150.366 Y71.836 E0.11397
G1 X150.366 Y71.302 E0.01681
G1 X148.337 Y69.273 E0.09020
G1 X148.871 Y69.273 E0.01681
G1 X150.366 Y70.767 E0.06643
G1 X150.366 Y70.232 E0.01681
G1 X149.406 Y69.273 E0.04266
G1 X149.941 Y69.273 E0.01681
G1 X150.535 Y69.867 E0.02644
M106 S255
;BEFORE_LAYER_CHANGE
;0.35


G1 F8160
G1 X149.941 Y69.273 E-0.20561
G1 X149.406 Y69.273 E-0.13072
G1 X150.366 Y70.232 E-0.33180
G1 X150.366 Y70.608 E-0.09188
G1 E-0.04000 F2100.00000
G1 Z0.800 F10200.000
;AFTER_LAYER_CHANGE
;0.35
M104 S210 ; set temperature
G1 X153.406 Y67.433
G1 Z0.350
G1 E0.80000 F2100.00000
G1 F3000
G1 X153.611 Y68.314 E0.02188
G1 X153.608 Y89.151 E0.50394
G1 X153.479 Y89.788 E0.01570
G1 X153.183 Y90.366 E0.01570
G1 X152.742 Y90.842 E0.01570
G1 X152.188 Y91.181 E0.01570
G1 X151.244 Y91.380 E0.02333
G1 X98.482 Y91.379 E1.27604
G1 X97.819 Y91.269 E0.01625
G1 X97.210 Y90.976 E0.01634
G1 X96.711 Y90.527 E0.01625
G1 X96.356 Y89.952 E0.01634
G1 X96.158 Y89.027 E0.02288
G1 X96.161 Y68.281 E0.50173
G1 X96.284 Y67.639 E0.01579
G1 X96.579 Y67.053 E0.01589
G1 X97.023 Y66.569 E0.01589
G1 X97.583 Y66.225 E0.01589
G1 X98.527 Y66.026 E0.02333
G1 X151.239 Y66.026 E1.27485
G1 X152.127 Y66.199 E0.02188
G1 X152.886 Y66.692 E0.02188
G1 X153.371 Y67.384 E0.02043
G1 F8160
G1 X153.611 Y68.314 E-0.23488
G1 X153.611 Y70.462 E-0.52512
G1 E-0.04000 F2100.00000
G1 Z0.950 F10200.000
G1 X150.593 Y69.046
G1 Z0.350
G1 E0.80000 F2100.00000
M204 S800
G1 F2700
G1 X150.593 Y88.360 E0.50325
G1 X99.178 Y88.360 E1.33964
G1 X99.178 Y69.046 E0.50325
G1 X150.533 Y69.046 E1.33808
M204 S1000
G1 X151.010 Y68.628 F10200.000
M204 S800
G1 F2100
G1 X151.010 Y88.778 E0.52502
G1 X98.760 Y88.778 E1.36141
G1 X98.760 Y68.628 E0.52502
G1 X150.950 Y68.628 E1.35985
M204 S1000
G1 X150.854 Y68.996 F10200.000
G1 F8160
G1 X150.960 Y71.736 E-0.76000
G1 E-0.04000 F2100.00000
G1 Z0.950 F10200.000
G1 X149.615 Y88.235
G1 Z0.350
G1 E0.80000 F2100.00000
M204 S1500
G1 F10200
G1 X150.279 Y87.571 E0.02468
G1 X150.279 Y86.975 E0.01566
G1 X149.207 Y88.047 E0.03983
G1 X148.612 Y88.047 E0.01566
G1 X150.279 Y86.379 E0.06197
G1 X150.279 Y85.783 E0.01566
G1 X148.016 Y88.047 E0.08411
G1 X147.420 Y88.047 E0.01566
G1 X150.279 Y85.187 E0.10626
G1 X150.279 Y84.591 E0.01566
G1 X146.824 Y88.047 E0.12840
G1 X146.228 Y88.047 E0.01566
G1 X150.279 Y83.995 E0.15054
G1 X150.279 Y83.400 E0.01566
G1 X145.632 Y88.047 E0.17268
G1 X145.036 Y88.047 E0.01566
G1 X150.279 Y82.804 E0.19482
G1 X150.279 Y82.208 E0.01566
G1 X144.441 Y88.047 E0.21696
G1 X143.845 Y88.047 E0.01566
G1 X150.279 Y81.612 E0.23910
G1 X150.279 Y81.016 E0.01566
G1 X143.249 Y88.047 E0.26125
G1 X142.653 Y88.047 E0.01566
G1 X150.279 Y80.420 E0.28339
G1 X150.279 Y79.824 E0.01566
G1 X142.057 Y88.047 E0.30553
G1 X141.461 Y88.047 E0.01566
G1 X150.279 Y79.229 E0.32767
G1 X150.279 Y78.633 E0.01566
G1 X140.865 Y88.047 E0.34981
G1 X140.270 Y88.047 E0.01566
G1 X150.279 Y78.037 E0.37195
G1 X150.279 Y77.441 E0.01566
G1 X139.674 Y88.047 E0.39409
G1 X139.078 Y88.047 E0.01566
G1 X150.279 Y76.845 E0.41624
G1 X150.279 Y76.249 E0.01566
G1 X138.482 Y88.047 E0.43838
G1 X137.886 Y88.047 E0.01566
G1 X150.279 Y75.653 E0.46052
G1 X150.279 Y75.058 E0.01566
G1 X137.290 Y88.047 E0.48266
G1 X136.694 Y88.047 E0.01566
G1 X150.279 Y74.462 E0.50480
G1 X150.279 Y73.866 E0.01566
G1 X136.099 Y88.047 E0.52694
G1 X135.503 Y88.047 E0.01566
G1 X150.279 Y73.270 E0.54908
G1 X150.279 Y72.674 E0.01566
G1 X134.907 Y88.047 E0.57123
G1 X134.311 Y88.047 E0.01566
G1 X150.279 Y72.078 E0.59337
G1 X150.279 Y71.482 E0.01566
G1 X133.715 Y88.047 E0.61551
G1 X133.119 Y88.047 E0.01566
G1 X150.279 Y70.887 E0.63765
G1 X150.279 Y70.291 E0.01566
G1 X132.523 Y88.047 E0.65979
G1 X131.928 Y88.047 E0.01566
G1 X150.279 Y69.695 E0.68193
G1 X150.279 Y69.359 E0.00883
G1 X150.019 Y69.359 E0.00683
G1 X131.332 Y88.047 E0.69442
G1 X130.736 Y88.047 E0.01566
G1 X149.424 Y69.359 E0.69442
G1 X148.828 Y69.359 E0.01566
G1 X130.140 Y88.047 E0.69442
G1 X129.544 Y88.047 E0.01566
G1 X148.232 Y69.359 E0.69442
G1 X147.636 Y69.359 E0.01566
G1 X128.948 Y88.047 E0.69442
G1 X128.352 Y88.047 E0.01566
G1 X147.040 Y69.359 E0.69442
G1 X146.444 Y69.359 E0.01566
G1 X127.757 Y88.047 E0.69442
G1 X127.161 Y88.047 E0.01566
G1 X145.848 Y69.359 E0.69442
G1 X145.253 Y69.359 E0.01566
G1 X126.565 Y88.047 E0.69442
G1 X125.969 Y88.047 E0.01566
G1 X144.657 Y69.359 E0.69442
G1 X144.061 Y69.359 E0.01566
G1 X125.373 Y88.047 E0.69442
G1 X124.777 Y88.047 E0.01566
G1 X143.465 Y69.359 E0.69442
G1 X142.869 Y69.359 E0.01566
G1 X124.181 Y88.047 E0.69442
G1 X123.586 Y88.047 E0.01566
G1 X142.273 Y69.359 E0.69442
G1 X141.677 Y69.359 E0.01566
G1 X122.990 Y88.047 E0.69442
G1 X122.394 Y88.047 E0.01566
G1 X141.082 Y69.359 E0.69442
G1 X140.486 Y69.359 E0.01566
G1 X121.798 Y88.047 E0.69442
G1 X121.202 Y88.047 E0.01566
G1 X139.890 Y69.359 E0.69442
G1 X139.294 Y69.359 E0.01566
G1 X120.606 Y88.047 E0.69442
G1 X120.011 Y88.047 E0.01566
G1 X138.698 Y69.359 E0.69442
G1 X138.102 Y69.359 E0.01566
G1 X119.415 Y88.047 E0.69442
G1 X118.819 Y88.047 E0.01566
G1 X137.506 Y69.359 E0.69442
G1 X136.911 Y69.359 E0.01566
G1 X118.223 Y88.047 E0.69442
G1 X117.627 Y88.047 E0.01566
G1 X136.315 Y69.359 E0.69442
G1 X135.719 Y69.359 E0.01566
G1 X117.031 Y88.047 E0.69442
G1 X116.435 Y88.047 E0.01566
G1 X135.123 Y69.359 E0.69442
G1 X134.527 Y69.359 E0.01566
G1 X115.840 Y88.047 E0.69442
G1 X115.244 Y88.047 E0.01566
G1 X133.931 Y69.359 E0.69442
G1 X133.336 Y69.359 E0.01566
G1 X114.648 Y88.047 E0.69442
G1 X114.052 Y88.047 E0.01566
G1 X132.740 Y69.359 E0.69442
G1 X132.144 Y69.359 E0.01566
G1 X113.456 Y88.047 E0.69442
G1 X112.860 Y88.047 E0.01566
G1 X131.548 Y69.359 E0.69442
G1 X130.952 Y69.359 E0.01566
G1 X112.264 Y88.047 E0.69442
G1 X111.669 Y88.047 E0.01566
G1 X130.356 Y69.359 E0.69442
G1 X129.760 Y69.359 E0.01566
G1 X111.073 Y88.047 E0.69442
G1 X110.477 Y88.047 E0.01566
G1 X129.165 Y69.359 E0.69442
G1 X128.569 Y69.359 E0.01566
G1 X109.881 Y88.047 E0.69442
G1 X109.285 Y88.047 E0.01566
G1 X127.973 Y69.359 E0.69442
G1 X127.377 Y69.359 E0.01566
G1 X108.689 Y88.047 E0.69442
G1 X108.093 Y88.047 E0.01566
G1 X126.781 Y69.359 E0.69442
G1 X126.185 Y69.359 E0.01566
G1 X107.498 Y88.047 E0.69442
G1 X106.902 Y88.047 E0.01566
