; generated by Slic3r Prusa Edition 1.39.2 on 2020-12-21 at 18:03:34

; 

; external perimeters extrusion width = 0.45mm
; perimeters extrusion width = 0.45mm
; infill extrusion width = 0.45mm
; solid infill extrusion width = 0.45mm
; top infill extrusion width = 0.40mm
; first layer extrusion width = 0.42mm

M107
M115 U3.1.3-RC1 ; tell printer latest fw version
M201 X1000 Y1000 Z200 E5000 ; sets maximum accelerations, mm/sec^2
M203 X200 Y200 Z12 E120 ; sets maximum feedrates, mm/sec
M204 S1250 T1250 ; sets acceleration (S) and retract acceleration (T)
M205 X10 Y10 Z0.4 E2.5 ; sets the jerk limits, mm/sec
M205 S0 T0 ; sets the minimum extruding and travel feed rate, mm/sec
M83  ; extruder relative mode
M104 S215 ; set extruder temp
M140 S60 ; set bed temp
M190 S60 ; wait for bed temp
M109 S215 ; wait for extruder temp
G28 W ; home all without mesh bed level
G80 ; mesh bed leveling
G1 Y-3.0 F1000.0 ; go outside print area
G92 E0.0
G1 X60.0 E9.0  F1000.0 ; intro line
G1 X100.0 E12.5  F1000.0 ; intro line
G92 E0.0
M221 S95
M900 K30; Filament gcode
G21 ; set units to millimeters
G90 ; use absolute coordinates
M83 ; use relative distances for extrusion
;BEFORE_LAYER_CHANGE
;0.2


G1 E-0.80000 F2100.00000
G1 Z0.600 F10200.000
;AFTER_LAYER_CHANGE
;0.2
G1 X109.779 Y100.644
G1 Z0.200
G1 E0.80000 F2100.00000
M204 S1000
G1 F900
G1 X110.217 Y100.170 E0.02025
G1 X110.740 Y99.797 E0.02011
G1 X111.331 Y99.538 E0.02025
G1 X112.164 Y99.391 E0.02651
G1 X115.091 Y99.388 E0.09178
G1 X126.642 Y99.878 E0.36250
G1 X127.427 Y100.042 E0.02515
G1 X128.149 Y100.403 E0.02529
G1 X128.672 Y100.845 E0.02148
G1 X129.086 Y101.390 E0.02148
G1 X129.372 Y102.013 E0.02148
G1 X129.515 Y102.683 E0.02148
G1 X129.520 Y107.266 E0.14372
G1 X129.354 Y108.038 E0.02474
G1 X128.998 Y108.747 E0.02488
G1 X128.512 Y109.312 E0.02338
G1 X127.901 Y109.748 E0.02352
G1 X127.204 Y110.026 E0.02352
G1 X126.462 Y110.131 E0.02352
G1 X123.495 Y110.129 E0.09301
G1 X112.088 Y109.645 E0.35797
G1 X111.276 Y109.483 E0.02597
G1 X110.538 Y109.117 E0.02583
G1 X110.036 Y108.697 E0.02052
G1 X109.630 Y108.178 E0.02066
G1 X109.342 Y107.585 E0.02066
G1 X109.184 Y106.946 E0.02066
G1 X109.159 Y102.375 E0.14329
G1 X109.246 Y101.771 E0.01916
G1 X109.450 Y101.195 E0.01916
G1 X109.748 Y100.696 E0.01823
G1 F8160
G1 X110.217 Y100.170 E-0.17229
G1 X110.740 Y99.797 E-0.15684
G1 X111.331 Y99.538 E-0.15790
G1 X112.164 Y99.391 E-0.20672
G1 X112.435 Y99.391 E-0.06625
G1 E-0.04000 F2100.00000
G1 Z0.800 F10200.000
G1 X111.502 Y99.880
G1 Z0.200
G1 E0.80000 F2100.00000
G1 F900
G1 X112.200 Y99.767 E0.02218
G1 X115.091 Y99.766 E0.09064
G1 X126.595 Y100.253 E0.36102
G1 X127.265 Y100.385 E0.02141
G1 X127.885 Y100.680 E0.02154
G1 X128.362 Y101.067 E0.01924
G1 X128.741 Y101.549 E0.01924
G1 X129.004 Y102.104 E0.01924
G1 X129.138 Y102.707 E0.01937
G1 X129.147 Y107.197 E0.14078
G1 X129.014 Y107.867 E0.02141
G1 X128.721 Y108.483 E0.02141
G1 X128.290 Y109.003 E0.02116
G1 X127.747 Y109.403 E0.02116
G1 X127.122 Y109.658 E0.02116
G1 X126.454 Y109.754 E0.02116
G1 X123.506 Y109.753 E0.09244
G1 X112.125 Y109.269 E0.35716
G1 X111.438 Y109.140 E0.02192
G1 X110.802 Y108.839 E0.02205
G1 X110.336 Y108.465 E0.01873
G1 X109.965 Y108.002 E0.01860
G1 X109.700 Y107.466 E0.01873
G1 X109.557 Y106.886 E0.01873
G1 X109.535 Y102.401 E0.14064
G1 X109.613 Y101.858 E0.01720
G1 X109.797 Y101.341 E0.01720
G1 X110.097 Y100.848 E0.01809
G1 X110.494 Y100.429 E0.01809
G1 X110.969 Y100.101 E0.01809
G1 X111.446 Y99.903 E0.01621
G1 F8160
G1 X112.200 Y99.767 E-0.18724
G1 X114.543 Y99.766 E-0.57276
G1 E-0.04000 F2100.00000
G1 Z0.800 F10200.000
G1 X110.143 Y101.492
G1 Z0.200
G1 E0.80000 F2100.00000
G1 F900
G1 X110.409 Y101.062 E0.01585
G1 X110.763 Y100.695 E0.01597
G1 X111.186 Y100.413 E0.01597
G1 X111.661 Y100.227 E0.01597
G1 X112.228 Y100.143 E0.01799
G1 X115.090 Y100.143 E0.08974
G1 X126.554 Y100.628 E0.35976
G1 X127.114 Y100.733 E0.01787
G1 X127.633 Y100.968 E0.01787
G1 X128.060 Y101.299 E0.01692
G1 X128.403 Y101.720 E0.01704
G1 X128.641 Y102.209 E0.01704
G1 X128.763 Y102.738 E0.01704
G1 X128.773 Y107.145 E0.13815
G1 X128.669 Y107.709 E0.01799
G1 X128.433 Y108.232 E0.01799
G1 X128.062 Y108.699 E0.01870
G1 X127.587 Y109.060 E0.01870
G1 X127.037 Y109.290 E0.01870
G1 X126.443 Y109.377 E0.01882
G1 X123.520 Y109.376 E0.09165
G1 X112.159 Y108.893 E0.35653
G1 X111.583 Y108.790 E0.01835
G1 X111.053 Y108.552 E0.01823
G1 X110.632 Y108.226 E0.01668
G1 X110.294 Y107.816 E0.01668
G1 X110.055 Y107.340 E0.01668
G1 X109.929 Y106.823 E0.01669
G1 X109.911 Y102.425 E0.13791
G1 X110.129 Y101.550 E0.02824
G1 F8160
G1 X110.409 Y101.062 E-0.13766
G1 X110.763 Y100.695 E-0.12455
G1 X111.186 Y100.413 E-0.12455
G1 X111.661 Y100.227 E-0.12455
G1 X112.228 Y100.143 E-0.14028
G1 X112.672 Y100.143 E-0.10842
G1 E-0.04000 F2100.00000
G1 Z0.800 F10200.000
G1 X112.874 Y103.107
G1 Z0.200
G1 E0.80000 F2100.00000
G1 F900
G1 X114.500 Y103.107 E0.05098
G1 X114.500 Y105.933 E0.08860
G1 X112.874 Y105.933 E0.05098
G1 X112.874 Y103.167 E0.08672
G1 X112.497 Y102.730 F10200.000
G1 F900
G1 X114.877 Y102.730 E0.07462
G1 X114.877 Y106.310 E0.11225
G1 X112.497 Y106.310 E0.07462
G1 X112.497 Y102.790 E0.11037
G1 X112.875 Y102.859 F10200.000
G1 F8160
G1 X114.877 Y102.730 E-0.58206
G1 X114.877 Y103.458 E-0.17794
G1 E-0.04000 F2100.00000
G1 Z0.800 F10200.000
G1 X112.987 Y104.984
G1 Z0.200
G1 E0.80000 F2100.00000
G1 F900
G1 X113.652 Y105.650 E0.03222
G1 X114.217 Y105.650 E0.01931
G1 X114.217 Y105.632 E0.00061
G1 X113.156 Y104.572 E0.05132
G1 X113.156 Y103.990 E0.01992
G1 X114.217 Y105.050 E0.05132
G1 X114.217 Y104.468 E0.01992
G1 X113.156 Y103.408 E0.05132
G1 X113.156 Y103.390 E0.00062
G1 X113.721 Y103.390 E0.01931
G1 X114.386 Y104.055 E0.03223
G1 F8160
G1 X113.721 Y103.390 E-0.23021
G1 X113.156 Y103.390 E-0.13792
G1 X113.156 Y103.408 E-0.00439
G1 X114.217 Y104.468 E-0.36659
G1 X114.217 Y104.553 E-0.02088
G1 E-0.04000 F2100.00000
G1 Z0.800 F10200.000
G1 X124.187 Y103.587
G1 Z0.200
G1 E0.80000 F2100.00000
G1 F900
G1 X125.813 Y103.587 E0.05098
G1 X125.813 Y106.413 E0.08860
G1 X124.187 Y106.413 E0.05098
G1 X124.187 Y103.647 E0.08672
G1 X123.810 Y103.210 F10200.000
G1 F900
G1 X126.190 Y103.210 E0.07462
G1 X126.190 Y106.790 E0.11225
G1 X123.810 Y106.790 E0.07462
G1 X123.810 Y103.270 E0.11037
G1 X124.189 Y103.339 F10200.000
G1 F8160
G1 X126.190 Y103.210 E-0.58206
G1 X126.190 Y103.938 E-0.17794
G1 E-0.04000 F2100.00000
G1 Z0.800 F10200.000
G1 X124.300 Y105.464
G1 Z0.200
G1 E0.80000 F2100.00000
G1 F900
G1 X124.966 Y106.130 E0.03222
G1 X125.530 Y106.130 E0.01931
G1 X125.530 Y106.112 E0.00061
G1 X124.470 Y105.052 E0.05132
G1 X124.470 Y104.470 E0.01992
G1 X125.530 Y105.530 E0.05132
G1 X125.530 Y104.948 E0.01992
G1 X124.470 Y103.888 E0.05132
G1 X124.470 Y103.870 E0.00062
G1 X125.034 Y103.870 E0.01931
G1 X125.700 Y104.536 E0.03223
M106 S255
;BEFORE_LAYER_CHANGE
;0.35


G1 F8160
G1 X125.034 Y103.870 E-0.23021
G1 X124.470 Y103.870 E-0.13792
G1 X124.470 Y103.888 E-0.00439
G1 X125.530 Y104.948 E-0.36659
G1 X125.530 Y105.034 E-0.02088
G1 E-0.04000 F2100.00000
G1 Z0.800 F10200.000
;AFTER_LAYER_CHANGE
;0.35
M104 S210 ; set temperature
G1 X129.354 Y108.038
G1 Z0.350
G1 E0.80000 F2100.00000
G1 F900
G1 X128.998 Y108.747 E0.01919
G1 X128.512 Y109.312 E0.01804
G1 X127.901 Y109.748 E0.01814
G1 X127.204 Y110.026 E0.01814
G1 X126.462 Y110.131 E0.01814
G1 X123.495 Y110.129 E0.07174
G1 X112.088 Y109.645 E0.27612
G1 X111.276 Y109.483 E0.02003
G1 X110.538 Y109.117 E0.01992
G1 X110.036 Y108.697 E0.01583
G1 X109.630 Y108.178 E0.01594
G1 X109.342 Y107.585 E0.01594
G1 X109.184 Y106.946 E0.01594
G1 X109.159 Y102.375 E0.11053
G1 X109.246 Y101.771 E0.01478
G1 X109.450 Y101.195 E0.01478
G1 X109.779 Y100.644 E0.01551
G1 X110.217 Y100.170 E0.01562
G1 X110.740 Y99.797 E0.01551
G1 X111.331 Y99.538 E0.01562
G1 X112.164 Y99.391 E0.02045
G1 X115.091 Y99.388 E0.07079
G1 X126.642 Y99.878 E0.27961
G1 X127.427 Y100.042 E0.01940
G1 X128.149 Y100.403 E0.01951
G1 X128.672 Y100.845 E0.01657
G1 X129.086 Y101.390 E0.01657
G1 X129.372 Y102.013 E0.01657
G1 X129.515 Y102.683 E0.01657
G1 X129.520 Y107.266 E0.11085
G1 X129.367 Y107.979 E0.01763
G1 F8160
G1 X128.998 Y108.747 E-0.20823
G1 X128.512 Y109.312 E-0.18233
G1 X127.901 Y109.748 E-0.18339
G1 X127.204 Y110.026 E-0.18339
G1 X127.194 Y110.028 E-0.00265
G1 E-0.04000 F2100.00000
G1 Z0.950 F10200.000
G1 X114.444 Y105.877
G1 Z0.350
G1 E0.80000 F2100.00000
M204 S800
G1 F900
G1 X112.929 Y105.877 E0.03946
G1 X112.929 Y103.163 E0.07073
G1 X114.444 Y103.163 E0.03946
G1 X114.444 Y105.817 E0.06916
M204 S1000
G1 X114.862 Y106.295 F10200.000
M204 S800
G1 F900
G1 X112.512 Y106.295 E0.06123
G1 X112.512 Y102.745 E0.09250
G1 X114.862 Y102.745 E0.06123
G1 X114.862 Y106.235 E0.09093
M204 S1000
G1 X114.483 Y106.166 F10200.000
G1 F8160
G1 X112.512 Y106.295 E-0.57473
G1 X112.512 Y105.537 E-0.18527
G1 E-0.04000 F2100.00000
G1 Z0.950 F10200.000
G1 X113.407 Y105.752
G1 Z0.350
G1 E0.80000 F2100.00000
M204 S1500
G1 F900
G1 X114.130 Y105.029 E0.02864
G1 X114.130 Y104.393 E0.01779
G1 X113.243 Y105.281 E0.03516
G1 X113.243 Y104.646 E0.01779
G1 X114.130 Y103.758 E0.03516
G1 X114.130 Y103.476 E0.00791
G1 X113.778 Y103.476 E0.00988
G1 X113.055 Y104.199 E0.02863
M204 S1000
G1 F8160
G1 X113.778 Y103.476 E-0.24994
G1 X114.130 Y103.476 E-0.08626
G1 X114.130 Y103.758 E-0.06903
G1 X113.243 Y104.646 E-0.30692
G1 X113.243 Y104.842 E-0.04785
G1 E-0.04000 F2100.00000
G1 Z0.950 F10200.000
G1 X124.243 Y103.643
G1 Z0.350
G1 E0.80000 F2100.00000
M204 S800
G1 F900
G1 X125.757 Y103.643 E0.03946
G1 X125.757 Y106.357 E0.07073
G1 X124.243 Y106.357 E0.03946
G1 X124.243 Y103.703 E0.06916
M204 S1000
G1 X123.825 Y103.225 F10200.000
M204 S800
G1 F900
G1 X126.175 Y103.225 E0.06123
G1 X126.175 Y106.775 E0.09250
G1 X123.825 Y106.775 E0.06123
G1 X123.825 Y103.285 E0.09093
M204 S1000
G1 X124.204 Y103.354 F10200.000
G1 F8160
G1 X126.175 Y103.225 E-0.57473
G1 X126.175 Y103.983 E-0.18527
G1 E-0.04000 F2100.00000
G1 Z0.950 F10200.000
G1 X124.368 Y104.679
G1 Z0.350
G1 E0.80000 F2100.00000
M204 S1500
G1 F900
G1 X125.091 Y103.956 E0.02863
G1 X125.444 Y103.956 E0.00988
G1 X125.444 Y104.239 E0.00791
G1 X124.556 Y105.126 E0.03516
G1 X124.556 Y105.761 E0.01779
G1 X125.444 Y104.874 E0.03516
G1 X125.444 Y105.509 E0.01779
G1 X124.721 Y106.232 E0.02864
M204 S1000
;BEFORE_LAYER_CHANGE
;0.5


G1 F8160
G1 X125.444 Y105.509 E-0.24999
G1 X125.444 Y104.874 E-0.15529
G1 X124.556 Y105.761 E-0.30692
G1 X124.556 Y105.566 E-0.04780
G1 E-0.04000 F2100.00000
G1 Z0.950 F10200.000
;AFTER_LAYER_CHANGE
;0.5
G1 X127.204 Y110.026
G1 Z0.500
G1 E0.80000 F2100.00000
G1 F900
G1 X126.462 Y110.131 E0.01814
G1 X123.495 Y110.129 E0.07174
G1 X112.088 Y109.645 E0.27612
G1 X111.276 Y109.483 E0.02003
G1 X110.538 Y109.117 E0.01992
G1 X110.036 Y108.697 E0.01583
G1 X109.630 Y108.178 E0.01594
G1 X109.342 Y107.585 E0.01594
G1 X109.184 Y106.946 E0.01594
G1 X109.159 Y102.375 E0.11053
G1 X109.246 Y101.771 E0.01478
G1 X109.450 Y101.195 E0.01478
G1 X109.779 Y100.644 E0.01551
G1 X110.217 Y100.170 E0.01562
G1 X110.740 Y99.797 E0.01551
G1 X111.331 Y99.538 E0.01562
G1 X112.164 Y99.391 E0.02045
G1 X115.091 Y99.388 E0.07079
G1 X126.642 Y99.878 E0.27961
G1 X127.427 Y100.042 E0.01940
G1 X128.149 Y100.403 E0.01951
G1 X128.672 Y100.845 E0.01657
G1 X129.086 Y101.390 E0.01657
G1 X129.372 Y102.013 E0.01657
G1 X129.515 Y102.683 E0.01657
G1 X129.520 Y107.266 E0.11085
G1 X129.354 Y108.038 E0.01909
G1 X128.998 Y108.747 E0.01919
G1 X128.512 Y109.312 E0.01804
G1 X127.901 Y109.748 E0.01814
G1 X127.260 Y110.004 E0.01669
G1 F8160
G1 X126.462 Y110.131 E-0.19767
G1 X124.162 Y110.130 E-0.56233
G1 E-0.04000 F2100.00000
G1 Z1.100 F10200.000
G1 X114.444 Y105.877
G1 Z0.500
G1 E0.80000 F2100.00000
M204 S800
G1 F900
G1 X112.929 Y105.877 E0.03946
G1 X112.929 Y103.163 E0.07073
G1 X114.444 Y103.163 E0.03946
G1 X114.444 Y105.817 E0.06916
M204 S1000
G1 X114.862 Y106.295 F10200.000
M204 S800
G1 F900
G1 X112.512 Y106.295 E0.06123
G1 X112.512 Y102.745 E0.09250
G1 X114.862 Y102.745 E0.06123
G1 X114.862 Y106.235 E0.09093
M204 S1000
G1 X114.483 Y106.166 F10200.000
G1 F8160
G1 X112.512 Y106.295 E-0.57473
G1 X112.512 Y105.537 E-0.18527
G1 E-0.04000 F2100.00000
G1 Z1.100 F10200.000
G1 X113.052 Y104.974
G1 Z0.500
G1 E0.80000 F2100.00000
M204 S1500
G1 F900
G1 X113.667 Y105.589 E0.02086
G1 X114.155 Y105.589 E0.01174
G1 X114.155 Y105.533 E0.00133
G1 X113.218 Y104.595 E0.03184
G1 X113.218 Y104.051 E0.01307
G1 X114.155 Y104.989 E0.03184
G1 X114.155 Y104.444 E0.01307
G1 X113.218 Y103.506 E0.03184
G1 X113.218 Y103.451 E0.00134
G1 X113.707 Y103.451 E0.01174
G1 X114.321 Y104.065 E0.02086
M204 S1000
G1 F8160
G1 X113.707 Y103.451 E-0.21244
G1 X113.218 Y103.451 E-0.11950
G1 X113.218 Y103.506 E-0.01360
G1 X114.155 Y104.444 E-0.32422
G1 X114.155 Y104.813 E-0.09024
G1 E-0.04000 F2100.00000
G1 Z1.100 F10200.000
G1 X124.243 Y103.643
G1 Z0.500
G1 E0.80000 F2100.00000
M204 S800
G1 F900
G1 X125.757 Y103.643 E0.03946
G1 X125.757 Y106.357 E0.07073
G1 X124.243 Y106.357 E0.03946
G1 X124.243 Y103.703 E0.06916
M204 S1000
G1 X123.825 Y103.225 F10200.000
M204 S800
G1 F900
G1 X126.175 Y103.225 E0.06123
G1 X126.175 Y106.775 E0.09250
G1 X123.825 Y106.775 E0.06123
G1 X123.825 Y103.285 E0.09093
M204 S1000
G1 X124.204 Y103.354 F10200.000
G1 F8160
G1 X126.175 Y103.225 E-0.57473
G1 X126.175 Y103.983 E-0.18527
G1 E-0.04000 F2100.00000
G1 Z1.100 F10200.000
G1 X125.634 Y104.546
G1 Z0.500
G1 E0.80000 F2100.00000
M204 S1500
G1 F900
G1 X125.020 Y103.931 E0.02086
G1 X124.531 Y103.931 E0.01174
G1 X124.531 Y103.987 E0.00134
G1 X125.469 Y104.924 E0.03184
G1 X125.469 Y105.469 E0.01307
G1 X124.531 Y104.531 E0.03184
G1 X124.531 Y105.076 E0.01307
G1 X125.469 Y106.013 E0.03184
G1 X125.469 Y106.069 E0.00133
G1 X124.980 Y106.069 E0.01174
G1 X124.366 Y105.455 E0.02086
M204 S1000
;BEFORE_LAYER_CHANGE
;0.65


G1 F8160
G1 X124.980 Y106.069 E-0.21240
G1 X125.469 Y106.069 E-0.11954
G1 X125.469 Y106.013 E-0.01357
G1 X124.531 Y105.076 E-0.32422
G1 X124.531 Y104.706 E-0.09028
G1 E-0.04000 F2100.00000
G1 Z1.100 F10200.000
;AFTER_LAYER_CHANGE
;0.65
G1 X114.198 Y104.591
G1 Z0.650
G1 E0.80000 F2100.00000
M204 S800
G1 F900
G1 X114.152 Y104.741 E0.00410
G1 X114.005 Y104.925 E0.00612
G1 X113.869 Y105.003 E0.00410
G1 X113.637 Y105.038 E0.00612
G1 X113.412 Y104.969 E0.00612
G1 X113.240 Y104.808 E0.00615
G1 X113.155 Y104.594 E0.00600
G1 X113.154 Y104.433 E0.00418
G1 X113.240 Y104.215 E0.00612
G1 X113.348 Y104.099 E0.00413
G1 X113.559 Y103.998 E0.00609
G1 X113.716 Y103.986 E0.00410
G1 X113.870 Y104.021 E0.00413
G1 X114.061 Y104.151 E0.00600
G1 X114.180 Y104.357 E0.00620
G1 X114.202 Y104.531 E0.00458
M204 S1000
G1 X114.623 Y104.512 F10200.000
M204 S800
G1 F900
G1 X114.612 Y104.653 E0.00369
G1 X114.529 Y104.923 E0.00735
G1 X114.370 Y105.156 E0.00736
G1 X114.149 Y105.332 E0.00734
G1 X114.022 Y105.393 E0.00369
G1 X113.887 Y105.435 E0.00369
G1 X113.605 Y105.456 E0.00735
G1 X113.330 Y105.393 E0.00735
G1 X113.203 Y105.332 E0.00369
G1 X112.985 Y105.159 E0.00725
G1 X112.823 Y104.923 E0.00745
G1 X112.741 Y104.657 E0.00725
G1 X112.730 Y104.512 E0.00380
G1 X112.772 Y104.233 E0.00734
G1 X112.823 Y104.101 E0.00369
G1 X112.980 Y103.871 E0.00725
G1 X113.203 Y103.692 E0.00745
G1 X113.330 Y103.631 E0.00369
G1 X113.605 Y103.568 E0.00735
G1 X113.883 Y103.589 E0.00725
G1 X114.022 Y103.631 E0.00380
G1 X114.266 Y103.772 E0.00734
G1 X114.458 Y103.979 E0.00736
G1 X114.529 Y104.101 E0.00368
G1 X114.581 Y104.233 E0.00369
G1 X114.618 Y104.452 E0.00579
M204 S1000
G1 X114.502 Y104.586 F10200.000
G1 F8160
G1 X114.612 Y104.653 E-0.04914
G1 X114.529 Y104.923 E-0.06898
G1 X114.370 Y105.156 E-0.06908
G1 X114.149 Y105.332 E-0.06888
G1 X114.022 Y105.393 E-0.03459
G1 X113.887 Y105.435 E-0.03459
G1 X113.605 Y105.456 E-0.06898
G1 X113.330 Y105.393 E-0.06898
G1 X113.203 Y105.332 E-0.03459
G1 X112.985 Y105.159 E-0.06802
G1 X112.823 Y104.923 E-0.06993
G1 X112.741 Y104.657 E-0.06802
G1 X112.730 Y104.512 E-0.03565
G1 X112.742 Y104.428 E-0.02057
G1 E-0.04000 F2100.00000
G1 Z1.250 F10200.000
G1 X124.462 Y104.991
G1 Z0.650
G1 E0.80000 F2100.00000
M204 S800
G1 F900
G1 X124.485 Y104.837 E0.00407
G1 X124.601 Y104.636 E0.00604
G1 X124.726 Y104.535 E0.00418
