; generated by Slic3r Prusa Edition 1.39.2 on 2020-12-21 at 19:44:56

; 

; external perimeters extrusion width = 0.45mm
; perimeters extrusion width = 0.45mm
; infill extrusion width = 0.45mm
; solid infill extrusion width = 0.45mm
; top infill extrusion width = 0.40mm
; first layer extrusion width = 0.42mm

M107
M115 U3.1.3-RC1 ; tell printer latest fw version
M201 X1000 Y1000 Z200 E5000 ; sets maximum accelerations, mm/sec^2
M203 X200 Y200 Z12 E120 ; sets maximum feedrates, mm/sec
M204 S1250 T1250 ; sets acceleration (S) and retract acceleration (T)
M205 X10 Y10 Z0.4 E2.5 ; sets the jerk limits, mm/sec
M205 S0 T0 ; sets the minimum extruding and travel feed rate, mm/sec
M83  ; extruder relative mode
M104 S215 ; set extruder temp
M140 S60 ; set bed temp
M190 S60 ; wait for bed temp
M109 S215 ; wait for extruder temp
G28 W ; home all without mesh bed level
G80 ; mesh bed leveling
G1 Y-3.0 F1000.0 ; go outside print area
G92 E0.0
G1 X60.0 E9.0  F1000.0 ; intro line
G1 X100.0 E12.5  F1000.0 ; intro line
G92 E0.0
M221 S95
M900 K30; Filament gcode
G21 ; set units to millimeters
G90 ; use absolute coordinates
M83 ; use relative distances for extrusion
;BEFORE_LAYER_CHANGE
;0.2


G1 E-0.80000 F2100.00000
G1 Z0.600 F10200.000
;AFTER_LAYER_CHANGE
;0.2
G1 X97.861 Y92.655
G1 Z0.200
G1 E0.80000 F2100.00000
M204 S1000
G1 F1800
G1 X98.805 Y92.456 E0.03024
G1 X151.518 Y92.456 E1.65276
G1 X152.406 Y92.629 E0.02837
G1 X153.164 Y93.122 E0.02837
G1 X153.684 Y93.863 E0.02837
G1 X153.889 Y94.744 E0.02837
G1 X153.886 Y115.581 E0.65333
G1 X153.758 Y116.218 E0.02036
G1 X153.461 Y116.795 E0.02036
G1 X153.020 Y117.272 E0.02036
G1 X152.466 Y117.611 E0.02036
G1 X151.523 Y117.810 E0.03024
G1 X98.760 Y117.809 E1.65432
G1 X98.098 Y117.699 E0.02107
G1 X97.489 Y117.406 E0.02119
G1 X96.989 Y116.957 E0.02107
G1 X96.634 Y116.382 E0.02119
G1 X96.437 Y115.457 E0.02966
G1 X96.440 Y94.711 E0.65047
G1 X96.563 Y94.069 E0.02048
G1 X96.857 Y93.482 E0.02060
G1 X97.302 Y92.999 E0.02060
G1 X97.810 Y92.686 E0.01871
G1 F8160
G1 X98.805 Y92.456 E-0.24968
G1 X100.892 Y92.456 E-0.51032
G1 E-0.04000 F2100.00000
G1 Z0.800 F10200.000
G1 X103.127 Y110.361
G1 Z0.200
G1 E0.80000 F2100.00000
G1 F1800
G1 X103.625 Y110.239 E0.01606
G1 X104.137 Y110.239 E0.01606
G1 X104.634 Y110.361 E0.01606
G1 X105.087 Y110.599 E0.01606
G1 X105.471 Y110.939 E0.01606
G1 X105.762 Y111.360 E0.01606
G1 X105.943 Y111.839 E0.01606
G1 X106.005 Y112.348 E0.01606
G1 X105.943 Y112.856 E0.01606
G1 X105.762 Y113.335 E0.01606
G1 X105.467 Y113.762 E0.01626
G1 X105.049 Y114.116 E0.01719
G1 X104.634 Y114.334 E0.01469
G1 X104.137 Y114.456 E0.01606
G1 X103.625 Y114.456 E0.01606
G1 X103.127 Y114.334 E0.01606
G1 X102.674 Y114.096 E0.01606
G1 X102.291 Y113.756 E0.01606
G1 X101.996 Y113.330 E0.01626
G1 X101.813 Y112.813 E0.01719
G1 X101.756 Y112.348 E0.01469
G1 X101.818 Y111.839 E0.01606
G1 X102.000 Y111.360 E0.01606
G1 X102.291 Y110.939 E0.01606
G1 X102.674 Y110.599 E0.01606
G1 X103.074 Y110.389 E0.01418
G1 X103.249 Y110.723 F10200.000
G1 F1800
G1 X103.670 Y110.616 E0.01362
G1 X104.091 Y110.616 E0.01319
G1 X104.499 Y110.717 E0.01319
G1 X104.872 Y110.912 E0.01319
G1 X105.186 Y111.191 E0.01319
G1 X105.425 Y111.537 E0.01319
G1 X105.574 Y111.930 E0.01319
G1 X105.625 Y112.348 E0.01319
G1 X105.574 Y112.765 E0.01319
G1 X105.425 Y113.158 E0.01319
G1 X105.185 Y113.506 E0.01326
G1 X104.837 Y113.802 E0.01431
G1 X104.499 Y113.979 E0.01195
G1 X104.091 Y114.079 E0.01319
G1 X103.670 Y114.079 E0.01319
G1 X103.262 Y113.979 E0.01319
G1 X102.890 Y113.783 E0.01319
G1 X102.575 Y113.504 E0.01319
G1 X102.335 Y113.156 E0.01326
G1 X102.182 Y112.726 E0.01431
G1 X102.136 Y112.348 E0.01195
G1 X102.187 Y111.930 E0.01319
G1 X102.336 Y111.537 E0.01319
G1 X102.575 Y111.191 E0.01319
G1 X102.890 Y110.912 E0.01319
G1 X103.196 Y110.751 E0.01086
G1 X103.311 Y110.328 F10200.000
G1 F8160
G1 X103.670 Y110.616 E-0.12051
G1 X104.091 Y110.616 E-0.10282
G1 X104.499 Y110.717 E-0.10282
G1 X104.872 Y110.912 E-0.10282
G1 X105.186 Y111.191 E-0.10282
G1 X105.425 Y111.537 E-0.10282
G1 X105.574 Y111.930 E-0.10282
G1 X105.586 Y112.022 E-0.02260
G1 E-0.04000 F2100.00000
G1 Z0.800 F10200.000
G1 X104.130 Y99.955
G1 Z0.200
G1 E0.80000 F2100.00000
G1 F1800
G1 X103.583 Y99.943 E0.01716
G1 X103.128 Y99.831 E0.01467
G1 X102.676 Y99.593 E0.01603
G1 X102.293 Y99.254 E0.01603
G1 X102.002 Y98.833 E0.01603
G1 X101.821 Y98.355 E0.01603
G1 X101.759 Y97.848 E0.01603
G1 X101.821 Y97.340 E0.01603
G1 X102.002 Y96.862 E0.01603
G1 X102.293 Y96.441 E0.01603
G1 X102.676 Y96.102 E0.01603
G1 X103.128 Y95.864 E0.01603
G1 X103.625 Y95.742 E0.01603
G1 X104.136 Y95.742 E0.01603
G1 X104.633 Y95.864 E0.01603
G1 X105.086 Y96.102 E0.01603
G1 X105.468 Y96.441 E0.01603
G1 X105.759 Y96.862 E0.01603
G1 X105.940 Y97.340 E0.01603
G1 X106.002 Y97.848 E0.01603
G1 X105.940 Y98.355 E0.01603
G1 X105.759 Y98.833 E0.01603
G1 X105.468 Y99.254 E0.01603
G1 X105.086 Y99.593 E0.01603
G1 X104.633 Y99.831 E0.01603
G1 X104.188 Y99.941 E0.01436
G1 X104.098 Y99.575 F10200.000
G1 F1800
G1 X103.633 Y99.567 E0.01459
G1 X103.263 Y99.476 E0.01193
G1 X102.891 Y99.281 E0.01316
G1 X102.577 Y99.002 E0.01316
G1 X102.339 Y98.657 E0.01316
G1 X102.190 Y98.264 E0.01316
G1 X102.139 Y97.848 E0.01316
G1 X102.190 Y97.431 E0.01316
G1 X102.339 Y97.038 E0.01316
G1 X102.577 Y96.693 E0.01316
G1 X102.891 Y96.414 E0.01316
G1 X103.263 Y96.219 E0.01316
G1 X103.671 Y96.119 E0.01316
G1 X104.091 Y96.119 E0.01316
G1 X104.498 Y96.219 E0.01316
G1 X104.870 Y96.414 E0.01316
G1 X105.184 Y96.693 E0.01316
G1 X105.423 Y97.038 E0.01316
G1 X105.571 Y97.431 E0.01316
G1 X105.622 Y97.848 E0.01316
G1 X105.571 Y98.264 E0.01316
G1 X105.423 Y98.657 E0.01316
G1 X105.184 Y99.002 E0.01316
G1 X104.870 Y99.281 E0.01316
G1 X104.498 Y99.476 E0.01316
G1 X104.156 Y99.560 E0.01104
G1 X103.937 Y99.941 F10200.000
G1 F8160
G1 X103.633 Y99.567 E-0.12803
G1 X103.263 Y99.476 E-0.09305
G1 X102.891 Y99.281 E-0.10264
G1 X102.577 Y99.002 E-0.10264
G1 X102.339 Y98.657 E-0.10264
G1 X102.190 Y98.264 E-0.10264
G1 X102.139 Y97.848 E-0.10264
G1 X102.152 Y97.743 E-0.02573
G1 E-0.04000 F2100.00000
G1 Z0.800 F10200.000
G1 X114.127 Y99.560
G1 Z0.200
G1 E0.80000 F2100.00000
G1 F1800
G1 X114.127 Y99.546 E0.00046
G1 X141.301 Y99.546 E0.85203
G1 X141.301 Y110.720 E0.35036
G1 X114.127 Y110.720 E0.85203
G1 X114.127 Y99.620 E0.34802
G1 X114.504 Y99.923 F10200.000
G1 F1800
G1 X140.924 Y99.923 E0.82838
G1 X140.924 Y110.343 E0.32671
G1 X114.504 Y110.343 E0.82838
G1 X114.504 Y99.983 E0.32483
G1 X114.349 Y99.554 F10200.000
G1 F8160
G1 X117.612 Y99.976 E-0.76000
G1 E-0.04000 F2100.00000
G1 Z0.800 F10200.000
G1 X99.401 Y95.420
G1 Z0.200
G1 E0.80000 F2100.00000
G1 F1800
G1 X150.927 Y95.420 E1.61556
G1 X150.927 Y114.846 E0.60908
G1 X99.401 Y114.846 E1.61556
G1 X99.401 Y95.480 E0.60720
G1 X99.024 Y95.043 F10200.000
G1 F1800
G1 X151.304 Y95.043 E1.63920
G1 X151.304 Y115.223 E0.63273
G1 X99.024 Y115.223 E1.63920
G1 X99.024 Y95.103 E0.63085
G1 X99.421 Y95.092 F10200.000
G1 F8160
G1 X102.132 Y95.099 E-0.76000
G1 E-0.04000 F2100.00000
G1 Z0.800 F10200.000
G1 X102.502 Y96.105
G1 Z0.200
G1 E0.80000 F2100.00000
G1 F1800
G1 X102.100 Y95.703 E0.01787
G1 X101.565 Y95.703 E0.01681
G1 X102.098 Y96.236 E0.02370
G1 X101.876 Y96.548 E0.01205
G1 X101.031 Y95.703 E0.03757
G1 X100.496 Y95.703 E0.01681
G1 X101.688 Y96.894 E0.05298
G1 X101.543 Y97.284 E0.01308
G1 X99.961 Y95.703 E0.07031
G1 X99.684 Y95.703 E0.00873
G1 X99.684 Y95.960 E0.00808
G1 X101.485 Y97.761 E0.08008
G1 X101.474 Y97.848 E0.00275
G1 X101.535 Y98.345 E0.01576
G1 X99.684 Y96.494 E0.08230
G1 X99.684 Y97.029 E0.01681
G1 X117.218 Y114.563 E0.77950
G1 X116.683 Y114.563 E0.01681
G1 X99.684 Y97.564 E0.75573
G1 X99.684 Y98.098 E0.01681
G1 X116.148 Y114.563 E0.73196
G1 X115.614 Y114.563 E0.01681
G1 X99.684 Y98.633 E0.70819
G1 X99.684 Y99.168 E0.01681
G1 X115.079 Y114.563 E0.68443
G1 X114.544 Y114.563 E0.01681
G1 X99.684 Y99.702 E0.66066
G1 X99.684 Y100.237 E0.01681
G1 X114.010 Y114.563 E0.63689
G1 X113.475 Y114.563 E0.01681
G1 X99.684 Y100.771 E0.61312
G1 X99.684 Y101.306 E0.01681
G1 X112.940 Y114.563 E0.58935
G1 X112.406 Y114.563 E0.01681
G1 X99.684 Y101.841 E0.56558
G1 X99.684 Y102.375 E0.01681
G1 X111.871 Y114.563 E0.54181
G1 X111.336 Y114.563 E0.01681
G1 X99.684 Y102.910 E0.51804
G1 X99.684 Y103.445 E0.01681
G1 X110.802 Y114.563 E0.49427
G1 X110.267 Y114.563 E0.01681
G1 X99.684 Y103.979 E0.47050
G1 X99.684 Y104.514 E0.01681
G1 X109.732 Y114.563 E0.44673
G1 X109.198 Y114.563 E0.01681
G1 X106.106 Y111.471 E0.13745
G1 X106.220 Y111.771 E0.01009
G1 X106.268 Y112.168 E0.01256
G1 X108.663 Y114.563 E0.10648
G1 X108.128 Y114.563 E0.01681
G1 X106.249 Y112.683 E0.08355
G1 X106.220 Y112.924 E0.00763
G1 X106.147 Y113.116 E0.00645
G1 X107.594 Y114.563 E0.06432
G1 X107.059 Y114.563 E0.01681
G1 X105.993 Y113.497 E0.04738
G1 X105.775 Y113.813 E0.01208
G1 X106.524 Y114.563 E0.03332
G1 X105.990 Y114.563 E0.01681
G1 X105.517 Y114.090 E0.02102
G1 X105.257 Y114.310 E0.01072
G1 X105.269 Y114.377 E0.00212
G1 X105.625 Y114.732 E0.01581
G1 X105.010 Y114.530 F10200.000
G1 F1800
G1 X104.506 Y114.609 E0.00655
G1 X104.293 Y114.635 E0.00177
G1 X103.468 Y114.635 F10200.000
G1 F1800
G1 X102.751 Y114.530 E0.00596
G1 F8160
G1 X103.468 Y114.635 E-0.17705
G1 E-0.62295 F2100.00000
G1 Z0.800 F10200.000
G1 X100.278 Y114.732
G1 Z0.200
G1 E0.80000 F2100.00000
G1 F1800
G1 X99.684 Y114.138 E0.02643
G1 X99.684 Y113.603 E0.01681
G1 X100.643 Y114.563 E0.04266
G1 X101.178 Y114.563 E0.01681
G1 X99.684 Y113.069 E0.06643
G1 X99.684 Y112.534 E0.01681
G1 X101.713 Y114.563 E0.09020
G1 X102.247 Y114.563 E0.01681
G1 X99.684 Y111.999 E0.11397
G1 X99.684 Y111.465 E0.01681
G1 X101.883 Y113.664 E0.09780
G1 X101.742 Y113.459 E0.00783
G1 X101.536 Y112.878 E0.01939
G1 X101.523 Y112.769 E0.00346
G1 X99.684 Y110.930 E0.08175
G1 X99.684 Y110.395 E0.01681
G1 X101.489 Y112.201 E0.08027
G1 X101.556 Y111.733 E0.01486
G1 X99.684 Y109.861 E0.08323
G1 X99.684 Y109.326 E0.01681
G1 X101.703 Y111.345 E0.08977
G1 X101.747 Y111.228 E0.00394
G1 X101.900 Y111.007 E0.00843
G1 X99.684 Y108.791 E0.09852
G1 X99.684 Y108.257 E0.01681
G1 X102.130 Y110.703 E0.10877
G1 X102.414 Y110.452 E0.01191
G1 X99.684 Y107.722 E0.12137
G1 X99.684 Y107.187 E0.01681
G1 X102.741 Y110.245 E0.13592
G1 X103.026 Y110.095 E0.01013
G1 X103.106 Y110.075 E0.00259
G1 X99.684 Y106.653 E0.15216
G1 X99.684 Y106.118 E0.01681
G1 X103.535 Y109.970 E0.17123
G1 X104.056 Y109.956 E0.01639
G1 X99.684 Y105.583 E0.19440
G1 X99.684 Y105.049 E0.01681
G1 X105.128 Y110.493 E0.24203
G1 F8160
G1 X102.930 Y108.295 E-0.76000
G1 E-0.04000 F2100.00000
G1 Z0.800 F10200.000
G1 X105.042 Y95.841
G1 Z0.200
G1 E0.80000 F2100.00000
G1 F1800
G1 X104.705 Y95.608 E0.00287
G1 X104.565 Y95.630 F10200.000
G1 F1800
G1 X104.896 Y95.682 E0.00232
G1 F8160
G1 X104.565 Y95.630 E-0.08209
G1 E-0.71791 F2100.00000
G1 Z0.800 F10200.000
G1 X103.196 Y95.630
G1 Z0.200
G1 E0.80000 F2100.00000
G1 F1800
G1 X102.865 Y95.682 E0.00222
G1 X102.888 Y95.725 F10200.000
G1 F1800
G1 X102.719 Y95.841 E0.00144
G1 X102.888 Y95.725 F10200.000
G1 F1800
G1 X103.056 Y95.608 E0.00201
G1 F8160
G1 X102.888 Y95.725 E-0.05010
G1 E-0.74990 F2100.00000
G1 Z0.800 F10200.000
G1 X137.218 Y95.533
G1 Z0.200
G1 E0.80000 F2100.00000
G1 F1800
G1 X140.947 Y99.263 E0.16582
G1 X140.413 Y99.263 E0.01681
G1 X136.853 Y95.703 E0.15828
G1 X136.318 Y95.703 E0.01681
G1 X139.878 Y99.263 E0.15828
G1 X139.344 Y99.263 E0.01681
G1 X135.783 Y95.703 E0.15828
G1 X135.249 Y95.703 E0.01681
G1 X138.809 Y99.263 E0.15828
G1 X138.274 Y99.263 E0.01681
G1 X134.714 Y95.703 E0.15828
G1 X134.179 Y95.703 E0.01681
G1 X137.740 Y99.263 E0.15828
G1 X137.205 Y99.263 E0.01681
G1 X133.645 Y95.703 E0.15828
G1 X133.110 Y95.703 E0.01681
G1 X136.670 Y99.263 E0.15828
G1 X136.136 Y99.263 E0.01681
G1 X132.575 Y95.703 E0.15828
G1 X132.041 Y95.703 E0.01681
G1 X135.601 Y99.263 E0.15828
G1 X135.066 Y99.263 E0.01681
G1 X131.506 Y95.703 E0.15828
G1 X130.971 Y95.703 E0.01681
G1 X134.532 Y99.263 E0.15828
G1 X133.997 Y99.263 E0.01681
G1 X130.437 Y95.703 E0.15828
G1 X129.902 Y95.703 E0.01681
G1 X133.462 Y99.263 E0.15828
G1 X132.928 Y99.263 E0.01681
G1 X129.367 Y95.703 E0.15828
G1 X128.833 Y95.703 E0.01681
G1 X132.393 Y99.263 E0.15828
G1 X131.858 Y99.263 E0.01681
G1 X128.298 Y95.703 E0.15828
G1 X127.763 Y95.703 E0.01681
G1 X131.324 Y99.263 E0.15828
G1 X130.789 Y99.263 E0.01681
G1 X127.229 Y95.703 E0.15828
G1 X126.694 Y95.703 E0.01681
G1 X130.254 Y99.263 E0.15828
G1 X129.720 Y99.263 E0.01681
G1 X126.159 Y95.703 E0.15828
G1 X125.625 Y95.703 E0.01681
G1 X129.185 Y99.263 E0.15828
G1 X128.650 Y99.263 E0.01681
G1 X125.090 Y95.703 E0.15828
G1 X124.555 Y95.703 E0.01681
G1 X128.116 Y99.263 E0.15828
G1 X127.581 Y99.263 E0.01681
G1 X124.021 Y95.703 E0.15828
G1 X123.486 Y95.703 E0.01681
G1 X127.046 Y99.263 E0.15828
G1 X126.512 Y99.263 E0.01681
G1 X122.952 Y95.703 E0.15828
G1 X122.417 Y95.703 E0.01681
G1 X125.977 Y99.263 E0.15828
G1 X125.442 Y99.263 E0.01681
G1 X121.882 Y95.703 E0.15828
G1 X121.348 Y95.703 E0.01681
G1 X124.908 Y99.263 E0.15828
G1 X124.373 Y99.263 E0.01681
G1 X120.813 Y95.703 E0.15828
G1 X120.278 Y95.703 E0.01681
G1 X123.838 Y99.263 E0.15828
G1 X123.304 Y99.263 E0.01681
G1 X119.744 Y95.703 E0.15828
G1 X119.209 Y95.703 E0.01681
G1 X122.769 Y99.263 E0.15828
G1 X122.235 Y99.263 E0.01681
G1 X118.674 Y95.703 E0.15828
G1 X118.140 Y95.703 E0.01681
G1 X121.700 Y99.263 E0.15828
G1 X121.165 Y99.263 E0.01681
G1 X117.605 Y95.703 E0.15828
G1 X117.070 Y95.703 E0.01681
G1 X120.631 Y99.263 E0.15828
G1 X120.096 Y99.263 E0.01681
G1 X116.536 Y95.703 E0.15828
G1 X116.001 Y95.703 E0.01681
G1 X119.561 Y99.263 E0.15828
G1 X119.027 Y99.263 E0.01681
G1 X115.466 Y95.703 E0.15828
G1 X114.932 Y95.703 E0.01681
G1 X118.492 Y99.263 E0.15828
G1 X117.957 Y99.263 E0.01681
G1 X114.397 Y95.703 E0.15828
G1 X113.862 Y95.703 E0.01681
G1 X117.423 Y99.263 E0.15828
G1 X116.888 Y99.263 E0.01681
G1 X113.328 Y95.703 E0.15828
G1 X112.793 Y95.703 E0.01681
G1 X116.353 Y99.263 E0.15828
G1 X115.819 Y99.263 E0.01681
G1 X112.258 Y95.703 E0.15828
G1 X111.724 Y95.703 E0.01681
G1 X115.284 Y99.263 E0.15828
G1 X114.749 Y99.263 E0.01681
G1 X111.189 Y95.703 E0.15828
G1 X110.654 Y95.703 E0.01681
G1 X114.215 Y99.263 E0.15828
G1 X113.844 Y99.263 E0.01165
G1 X113.844 Y99.427 E0.00515
G1 X110.120 Y95.703 E0.16557
G1 X109.585 Y95.703 E0.01681
G1 X113.844 Y99.961 E0.18933
G1 X113.844 Y100.496 E0.01681
G1 X109.050 Y95.703 E0.21310
G1 X108.516 Y95.703 E0.01681
G1 X113.844 Y101.031 E0.23687
G1 X113.844 Y101.565 E0.01681
G1 X107.981 Y95.703 E0.26064
G1 X107.446 Y95.703 E0.01681
G1 X113.844 Y102.100 E0.28441
G1 X113.844 Y102.635 E0.01681
G1 X106.912 Y95.703 E0.30818
G1 X106.377 Y95.703 E0.01681
G1 X113.844 Y103.169 E0.33195
G1 X113.844 Y103.704 E0.01681
G1 X105.843 Y95.703 E0.35572
G1 X105.451 Y95.703 E0.01230
G1 X105.472 Y95.717 E0.00078
G1 X105.411 Y95.805 E0.00338
G1 X113.844 Y104.239 E0.37492
G1 X113.844 Y104.773 E0.01681
G1 X106.140 Y97.069 E0.34249
G1 X106.217 Y97.272 E0.00681
G1 X106.273 Y97.737 E0.01474
G1 X113.844 Y105.308 E0.33656
G1 X113.844 Y105.843 E0.01681
G1 X106.239 Y98.238 E0.33808
G1 X106.217 Y98.423 E0.00587
G1 X106.127 Y98.660 E0.00796
G1 X113.844 Y106.377 E0.34307
G1 X113.844 Y106.912 E0.01681
G1 X105.965 Y99.033 E0.35028
G1 X105.747 Y99.349 E0.01208
G1 X113.844 Y107.447 E0.35998
G1 X113.844 Y107.981 E0.01681
G1 X105.482 Y99.620 E0.37173
G1 X105.247 Y99.828 E0.00987
G1 X105.187 Y99.859 E0.00213
G1 X113.844 Y108.516 E0.38484
G1 X113.844 Y109.051 E0.01681
G1 X104.837 Y100.043 E0.40043
G1 X104.734 Y100.097 E0.00366
G1 X104.431 Y100.172 E0.00981
G1 X113.844 Y109.585 E0.41848
G1 X113.844 Y110.120 E0.01681
G1 X103.958 Y100.234 E0.43949
G1 X103.545 Y100.225 E0.01298
G1 X103.372 Y100.182 E0.00562
G1 X113.844 Y110.654 E0.46556
G1 X113.844 Y111.003 E0.01094
G1 X114.192 Y111.003 E0.01094
G1 X117.752 Y114.563 E0.15828
G1 X118.287 Y114.563 E0.01681
G1 X114.727 Y111.003 E0.15828
G1 X115.261 Y111.003 E0.01681
G1 X118.822 Y114.563 E0.15828
G1 X119.356 Y114.563 E0.01681
G1 X115.796 Y111.003 E0.15828
G1 X116.331 Y111.003 E0.01681
G1 X119.891 Y114.563 E0.15828
G1 X120.426 Y114.563 E0.01681
G1 X116.865 Y111.003 E0.15828
G1 X117.400 Y111.003 E0.01681
