; generated by Slic3r Prusa Edition 1.39.2 on 2020-12-21 at 19:47:22

; 

; external perimeters extrusion width = 0.45mm
; perimeters extrusion width = 0.45mm
; infill extrusion width = 0.45mm
; solid infill extrusion width = 0.45mm
; top infill extrusion width = 0.40mm
; first layer extrusion width = 0.42mm

M107
M115 U3.1.3-RC1 ; tell printer latest fw version
M201 X1000 Y1000 Z200 E5000 ; sets maximum accelerations, mm/sec^2
M203 X200 Y200 Z12 E120 ; sets maximum feedrates, mm/sec
M204 S1250 T1250 ; sets acceleration (S) and retract acceleration (T)
M205 X10 Y10 Z0.4 E2.5 ; sets the jerk limits, mm/sec
M205 S0 T0 ; sets the minimum extruding and travel feed rate, mm/sec
M83  ; extruder relative mode
M104 S215 ; set extruder temp
M140 S60 ; set bed temp
M190 S60 ; wait for bed temp
M109 S215 ; wait for extruder temp
G28 W ; home all without mesh bed level
G80 ; mesh bed leveling
G1 Y-3.0 F1000.0 ; go outside print area
G92 E0.0
G1 X60.0 E9.0  F1000.0 ; intro line
G1 X100.0 E12.5  F1000.0 ; intro line
G92 E0.0
M221 S95
M900 K30; Filament gcode
G21 ; set units to millimeters
G90 ; use absolute coordinates
M83 ; use relative distances for extrusion
;BEFORE_LAYER_CHANGE
;0.2


G1 E-0.80000 F2100.00000
G1 Z0.600 F10200.000
;AFTER_LAYER_CHANGE
;0.2
G1 X88.346 Y69.321
G1 Z0.200
G1 E0.80000 F2100.00000
M204 S1000
G1 F1800
G1 X88.863 Y68.615 E0.02743
G1 X89.329 Y68.274 E0.01811
G1 X89.867 Y68.054 E0.01823
G1 X98.436 Y66.028 E0.27608
G1 X151.239 Y66.026 E1.65560
G1 X152.127 Y66.199 E0.02837
G1 X152.889 Y66.695 E0.02849
G1 X153.407 Y67.436 E0.02837
G1 X153.611 Y68.322 E0.02849
G1 X153.727 Y94.693 E0.82688
G1 X153.727 Y115.330 E0.64706
G1 X153.525 Y116.258 E0.02977
G1 X152.977 Y117.033 E0.02977
G1 X152.239 Y117.504 E0.02743
G1 X151.378 Y117.677 E0.02755
G1 X98.646 Y117.677 E1.65336
G1 X97.702 Y117.480 E0.03024
G1 X96.917 Y116.927 E0.03013
G1 X96.563 Y116.437 E0.01894
G1 X96.344 Y115.878 E0.01882
G1 X87.919 Y81.110 E1.12167
G1 X87.887 Y76.676 E0.13903
G1 X88.119 Y70.169 E0.20414
G1 X88.330 Y69.378 E0.02567
G1 F8160
G1 X88.863 Y68.615 E-0.22763
G1 X89.329 Y68.274 E-0.14120
G1 X89.867 Y68.054 E-0.14212
G1 X90.859 Y67.820 E-0.24905
G1 E-0.04000 F2100.00000
G1 Z0.800 F10200.000
G1 X99.123 Y68.990
G1 Z0.200
G1 E0.80000 F2100.00000
G1 F1800
G1 X150.648 Y68.990 E1.61556
G1 X150.648 Y88.416 E0.60908
G1 X99.123 Y88.416 E1.61556
G1 X99.123 Y69.050 E0.60720
G1 X98.745 Y68.613 F10200.000
G1 F1800
G1 X151.025 Y68.613 E1.63920
G1 X151.025 Y88.793 E0.63273
G1 X98.745 Y88.793 E1.63920
G1 X98.745 Y68.673 E0.63085
G1 X99.142 Y68.662 F10200.000
G1 F8160
G1 X101.854 Y68.669 E-0.76000
G1 E-0.04000 F2100.00000
G1 Z0.800 F10200.000
G1 X100.000 Y88.303
G1 Z0.200
G1 E0.80000 F2100.00000
G1 F1800
G1 X99.405 Y87.708 E0.02643
G1 X99.405 Y87.173 E0.01681
G1 X100.365 Y88.133 E0.04266
G1 X100.900 Y88.133 E0.01681
G1 X99.405 Y86.639 E0.06643
G1 X99.405 Y86.104 E0.01681
G1 X101.434 Y88.133 E0.09020
G1 X101.969 Y88.133 E0.01681
G1 X99.405 Y85.569 E0.11397
G1 X99.405 Y85.035 E0.01681
G1 X102.504 Y88.133 E0.13774
G1 X103.038 Y88.133 E0.01681
G1 X99.405 Y84.500 E0.16151
G1 X99.405 Y83.965 E0.01681
G1 X103.573 Y88.133 E0.18527
G1 X104.107 Y88.133 E0.01681
G1 X99.405 Y83.431 E0.20904
G1 X99.405 Y82.896 E0.01681
G1 X104.642 Y88.133 E0.23281
G1 X105.177 Y88.133 E0.01681
G1 X99.405 Y82.361 E0.25658
G1 X99.405 Y81.827 E0.01681
G1 X105.711 Y88.133 E0.28035
G1 X106.246 Y88.133 E0.01681
G1 X99.405 Y81.292 E0.30412
G1 X99.405 Y80.757 E0.01681
G1 X106.781 Y88.133 E0.32789
G1 X107.315 Y88.133 E0.01681
G1 X99.405 Y80.223 E0.35166
G1 X99.405 Y79.688 E0.01681
G1 X107.850 Y88.133 E0.37543
G1 X108.385 Y88.133 E0.01681
G1 X99.405 Y79.153 E0.39920
G1 X99.405 Y78.619 E0.01681
G1 X108.919 Y88.133 E0.42297
G1 X109.454 Y88.133 E0.01681
G1 X99.405 Y78.084 E0.44673
G1 X99.405 Y77.550 E0.01681
G1 X109.989 Y88.133 E0.47050
G1 X110.523 Y88.133 E0.01681
G1 X99.405 Y77.015 E0.49427
G1 X99.405 Y76.480 E0.01681
G1 X111.058 Y88.133 E0.51804
G1 X111.593 Y88.133 E0.01681
G1 X99.405 Y75.946 E0.54181
G1 X99.405 Y75.411 E0.01681
G1 X112.127 Y88.133 E0.56558
G1 X112.662 Y88.133 E0.01681
G1 X99.405 Y74.876 E0.58935
G1 X99.405 Y74.342 E0.01681
G1 X113.197 Y88.133 E0.61312
G1 X113.731 Y88.133 E0.01681
G1 X99.405 Y73.807 E0.63689
G1 X99.405 Y73.272 E0.01681
G1 X114.266 Y88.133 E0.66066
G1 X114.801 Y88.133 E0.01681
G1 X99.405 Y72.738 E0.68443
G1 X99.405 Y72.203 E0.01681
G1 X115.335 Y88.133 E0.70819
G1 X115.870 Y88.133 E0.01681
G1 X99.405 Y71.668 E0.73196
G1 X99.405 Y71.134 E0.01681
G1 X116.405 Y88.133 E0.75573
G1 X116.939 Y88.133 E0.01681
G1 X99.405 Y70.599 E0.77950
G1 X99.405 Y70.064 E0.01681
G1 X117.474 Y88.133 E0.80327
G1 X118.009 Y88.133 E0.01681
G1 X99.405 Y69.530 E0.82704
G1 X99.405 Y69.273 E0.00808
G1 X99.683 Y69.273 E0.00873
G1 X118.543 Y88.133 E0.83847
G1 X119.078 Y88.133 E0.01681
G1 X100.218 Y69.273 E0.83847
G1 X100.752 Y69.273 E0.01681
G1 X119.613 Y88.133 E0.83847
G1 X120.147 Y88.133 E0.01681
G1 X101.287 Y69.273 E0.83847
G1 X101.822 Y69.273 E0.01681
G1 X120.682 Y88.133 E0.83847
G1 X121.216 Y88.133 E0.01681
G1 X102.356 Y69.273 E0.83847
G1 X102.891 Y69.273 E0.01681
G1 X121.751 Y88.133 E0.83847
G1 X122.286 Y88.133 E0.01681
G1 X103.426 Y69.273 E0.83847
G1 X103.960 Y69.273 E0.01681
G1 X122.820 Y88.133 E0.83847
G1 X123.355 Y88.133 E0.01681
G1 X104.495 Y69.273 E0.83847
G1 X105.029 Y69.273 E0.01681
G1 X123.890 Y88.133 E0.83847
G1 X124.424 Y88.133 E0.01681
G1 X105.564 Y69.273 E0.83847
G1 X106.099 Y69.273 E0.01681
G1 X124.959 Y88.133 E0.83847
G1 X125.494 Y88.133 E0.01681
G1 X106.633 Y69.273 E0.83847
G1 X107.168 Y69.273 E0.01681
G1 X126.028 Y88.133 E0.83847
G1 X126.563 Y88.133 E0.01681
G1 X107.703 Y69.273 E0.83847
G1 X108.237 Y69.273 E0.01681
G1 X127.098 Y88.133 E0.83847
G1 X127.632 Y88.133 E0.01681
G1 X108.772 Y69.273 E0.83847
G1 X109.307 Y69.273 E0.01681
G1 X128.167 Y88.133 E0.83847
G1 X128.702 Y88.133 E0.01681
G1 X109.841 Y69.273 E0.83847
G1 X110.376 Y69.273 E0.01681
G1 X129.236 Y88.133 E0.83847
G1 X129.771 Y88.133 E0.01681
G1 X110.911 Y69.273 E0.83847
G1 X111.445 Y69.273 E0.01681
G1 X130.306 Y88.133 E0.83847
G1 X130.840 Y88.133 E0.01681
G1 X111.980 Y69.273 E0.83847
G1 X112.515 Y69.273 E0.01681
G1 X131.375 Y88.133 E0.83847
G1 X131.910 Y88.133 E0.01681
G1 X113.049 Y69.273 E0.83847
G1 X113.584 Y69.273 E0.01681
G1 X132.444 Y88.133 E0.83847
G1 X132.979 Y88.133 E0.01681
G1 X114.119 Y69.273 E0.83847
G1 X114.653 Y69.273 E0.01681
G1 X133.514 Y88.133 E0.83847
G1 X134.048 Y88.133 E0.01681
G1 X115.188 Y69.273 E0.83847
G1 X115.723 Y69.273 E0.01681
G1 X134.583 Y88.133 E0.83847
G1 X135.118 Y88.133 E0.01681
G1 X116.257 Y69.273 E0.83847
G1 X116.792 Y69.273 E0.01681
G1 X135.652 Y88.133 E0.83847
G1 X136.187 Y88.133 E0.01681
G1 X117.327 Y69.273 E0.83847
G1 X117.861 Y69.273 E0.01681
G1 X136.722 Y88.133 E0.83847
G1 X137.256 Y88.133 E0.01681
G1 X118.396 Y69.273 E0.83847
G1 X118.931 Y69.273 E0.01681
G1 X137.791 Y88.133 E0.83847
G1 X138.325 Y88.133 E0.01681
G1 X119.465 Y69.273 E0.83847
G1 X120.000 Y69.273 E0.01681
G1 X138.860 Y88.133 E0.83847
G1 X139.395 Y88.133 E0.01681
G1 X120.535 Y69.273 E0.83847
G1 X121.069 Y69.273 E0.01681
G1 X139.929 Y88.133 E0.83847
G1 X140.464 Y88.133 E0.01681
G1 X121.604 Y69.273 E0.83847
G1 X122.138 Y69.273 E0.01681
G1 X140.999 Y88.133 E0.83847
G1 X141.533 Y88.133 E0.01681
G1 X122.673 Y69.273 E0.83847
G1 X123.208 Y69.273 E0.01681
G1 X142.068 Y88.133 E0.83847
G1 X142.603 Y88.133 E0.01681
G1 X123.742 Y69.273 E0.83847
G1 X124.277 Y69.273 E0.01681
G1 X143.137 Y88.133 E0.83847
G1 X143.672 Y88.133 E0.01681
G1 X124.812 Y69.273 E0.83847
G1 X125.346 Y69.273 E0.01681
G1 X144.207 Y88.133 E0.83847
G1 X144.741 Y88.133 E0.01681
G1 X125.881 Y69.273 E0.83847
G1 X126.416 Y69.273 E0.01681
G1 X145.276 Y88.133 E0.83847
G1 X145.811 Y88.133 E0.01681
G1 X126.950 Y69.273 E0.83847
G1 X127.485 Y69.273 E0.01681
G1 X146.345 Y88.133 E0.83847
G1 X146.880 Y88.133 E0.01681
G1 X128.020 Y69.273 E0.83847
G1 X128.554 Y69.273 E0.01681
G1 X147.415 Y88.133 E0.83847
G1 X147.949 Y88.133 E0.01681
G1 X129.089 Y69.273 E0.83847
G1 X129.624 Y69.273 E0.01681
G1 X148.484 Y88.133 E0.83847
G1 X149.019 Y88.133 E0.01681
G1 X130.158 Y69.273 E0.83847
G1 X130.693 Y69.273 E0.01681
G1 X149.553 Y88.133 E0.83847
G1 X150.088 Y88.133 E0.01681
G1 X131.228 Y69.273 E0.83847
G1 X131.762 Y69.273 E0.01681
G1 X150.366 Y87.876 E0.82704
G1 X150.366 Y87.341 E0.01681
G1 X132.297 Y69.273 E0.80327
G1 X132.832 Y69.273 E0.01681
G1 X150.366 Y86.807 E0.77951
G1 X150.366 Y86.272 E0.01681
G1 X133.366 Y69.273 E0.75574
G1 X133.901 Y69.273 E0.01681
G1 X150.366 Y85.737 E0.73197
G1 X150.366 Y85.203 E0.01681
G1 X134.436 Y69.273 E0.70820
G1 X134.970 Y69.273 E0.01681
G1 X150.366 Y84.668 E0.68443
G1 X150.366 Y84.133 E0.01681
G1 X135.505 Y69.273 E0.66066
G1 X136.040 Y69.273 E0.01681
G1 X150.366 Y83.599 E0.63689
G1 X150.366 Y83.064 E0.01681
G1 X136.574 Y69.273 E0.61312
G1 X137.109 Y69.273 E0.01681
G1 X150.366 Y82.529 E0.58935
G1 X150.366 Y81.995 E0.01681
G1 X137.644 Y69.273 E0.56558
G1 X138.178 Y69.273 E0.01681
G1 X150.366 Y81.460 E0.54181
G1 X150.366 Y80.925 E0.01681
G1 X138.713 Y69.273 E0.51804
G1 X139.247 Y69.273 E0.01681
G1 X150.366 Y80.391 E0.49428
G1 X150.366 Y79.856 E0.01681
G1 X139.782 Y69.273 E0.47051
G1 X140.317 Y69.273 E0.01681
G1 X150.366 Y79.321 E0.44674
G1 X150.366 Y78.787 E0.01681
G1 X140.851 Y69.273 E0.42297
G1 X141.386 Y69.273 E0.01681
G1 X150.366 Y78.252 E0.39920
G1 X150.366 Y77.717 E0.01681
G1 X141.921 Y69.273 E0.37543
G1 X142.455 Y69.273 E0.01681
G1 X150.366 Y77.183 E0.35166
G1 X150.366 Y76.648 E0.01681
G1 X142.990 Y69.273 E0.32789
G1 X143.525 Y69.273 E0.01681
G1 X150.366 Y76.113 E0.30412
G1 X150.366 Y75.579 E0.01681
G1 X144.059 Y69.273 E0.28035
G1 X144.594 Y69.273 E0.01681
G1 X150.366 Y75.044 E0.25658
G1 X150.366 Y74.510 E0.01681
G1 X145.129 Y69.273 E0.23282
G1 X145.663 Y69.273 E0.01681
G1 X150.366 Y73.975 E0.20905
G1 X150.366 Y73.440 E0.01681
G1 X146.198 Y69.273 E0.18528
G1 X146.733 Y69.273 E0.01681
G1 X150.366 Y72.906 E0.16151
G1 X150.366 Y72.371 E0.01681
G1 X147.267 Y69.273 E0.13774
G1 X147.802 Y69.273 E0.01681
G1 X150.366 Y71.836 E0.11397
G1 X150.366 Y71.302 E0.01681
G1 X148.337 Y69.273 E0.09020
G1 X148.871 Y69.273 E0.01681
G1 X150.366 Y70.767 E0.06643
G1 X150.366 Y70.232 E0.01681
G1 X149.406 Y69.273 E0.04266
G1 X149.941 Y69.273 E0.01681
G1 X150.535 Y69.867 E0.02644
G1 F8160
G1 X149.941 Y69.273 E-0.20561
G1 X149.406 Y69.273 E-0.13072
G1 X150.366 Y70.232 E-0.33180
G1 X150.366 Y70.608 E-0.09188
G1 E-0.04000 F2100.00000
G1 Z0.800 F10200.000
G1 X105.307 Y110.806
G1 Z0.200
G1 E0.80000 F2100.00000
G1 F1800
G1 X105.598 Y111.228 E0.01606
G1 X105.779 Y111.707 E0.01606
G1 X105.841 Y112.215 E0.01606
G1 X105.779 Y112.723 E0.01606
G1 X105.598 Y113.202 E0.01606
G1 X105.303 Y113.629 E0.01626
G1 X104.885 Y113.983 E0.01719
G1 X104.470 Y114.201 E0.01469
G1 X103.973 Y114.324 E0.01606
G1 X103.461 Y114.324 E0.01606
G1 X102.964 Y114.201 E0.01606
G1 X102.510 Y113.963 E0.01606
G1 X102.127 Y113.624 E0.01606
G1 X101.832 Y113.197 E0.01626
G1 X101.649 Y112.680 E0.01719
G1 X101.592 Y112.215 E0.01469
G1 X101.654 Y111.707 E0.01606
G1 X101.836 Y111.228 E0.01606
G1 X102.127 Y110.806 E0.01606
G1 X102.510 Y110.467 E0.01606
G1 X102.964 Y110.229 E0.01606
G1 X103.461 Y110.106 E0.01606
G1 X103.973 Y110.106 E0.01606
G1 X104.470 Y110.229 E0.01606
G1 X104.924 Y110.467 E0.01606
G1 X105.262 Y110.767 E0.01418
G1 X105.012 Y111.049 F10200.000
G1 F1800
G1 X105.261 Y111.404 E0.01362
G1 X105.411 Y111.798 E0.01319
G1 X105.461 Y112.215 E0.01319
G1 X105.411 Y112.632 E0.01319
G1 X105.261 Y113.026 E0.01319
G1 X105.021 Y113.374 E0.01326
G1 X104.673 Y113.669 E0.01431
G1 X104.335 Y113.846 E0.01195
G1 X103.927 Y113.947 E0.01319
G1 X103.507 Y113.947 E0.01319
G1 X103.098 Y113.846 E0.01319
G1 X102.726 Y113.651 E0.01319
G1 X102.411 Y113.372 E0.01319
G1 X102.171 Y113.024 E0.01326
G1 X102.018 Y112.593 E0.01431
G1 X101.972 Y112.215 E0.01195
G1 X102.023 Y111.798 E0.01319
G1 X102.172 Y111.404 E0.01319
G1 X102.411 Y111.058 E0.01319
G1 X102.726 Y110.779 E0.01319
G1 X103.098 Y110.584 E0.01319
G1 X103.507 Y110.483 E0.01319
G1 X103.927 Y110.483 E0.01319
G1 X104.335 Y110.584 E0.01319
G1 X104.708 Y110.779 E0.01319
G1 X104.967 Y111.009 E0.01086
G1 X105.403 Y110.966 F10200.000
G1 F8160
G1 X105.261 Y111.404 E-0.12051
G1 X105.411 Y111.798 E-0.10282
G1 X105.461 Y112.215 E-0.10282
G1 X105.411 Y112.632 E-0.10282
G1 X105.261 Y113.026 E-0.10282
G1 X105.021 Y113.374 E-0.10338
G1 X104.673 Y113.669 E-0.11161
G1 X104.625 Y113.694 E-0.01323
G1 E-0.04000 F2100.00000
G1 Z0.800 F10200.000
G1 X103.966 Y99.822
G1 Z0.200
G1 E0.80000 F2100.00000
G1 F1800
G1 X103.419 Y99.810 E0.01716
G1 X102.965 Y99.698 E0.01467
G1 X102.512 Y99.461 E0.01603
G1 X102.129 Y99.122 E0.01603
G1 X101.838 Y98.701 E0.01603
G1 X101.657 Y98.223 E0.01603
G1 X101.596 Y97.715 E0.01603
G1 X101.657 Y97.207 E0.01603
G1 X101.838 Y96.729 E0.01603
G1 X102.129 Y96.308 E0.01603
G1 X102.512 Y95.969 E0.01603
G1 X102.965 Y95.732 E0.01603
G1 X103.461 Y95.609 E0.01603
G1 X103.972 Y95.609 E0.01603
G1 X104.469 Y95.732 E0.01603
G1 X104.922 Y95.969 E0.01603
G1 X105.305 Y96.308 E0.01603
G1 X105.595 Y96.729 E0.01603
G1 X105.776 Y97.207 E0.01603
G1 X105.838 Y97.715 E0.01603
G1 X105.776 Y98.223 E0.01603
G1 X105.595 Y98.701 E0.01603
G1 X105.305 Y99.122 E0.01603
G1 X104.922 Y99.461 E0.01603
G1 X104.469 Y99.698 E0.01603
G1 X104.024 Y99.808 E0.01436
G1 X103.934 Y99.442 F10200.000
G1 F1800
G1 X103.469 Y99.434 E0.01459
G1 X103.099 Y99.343 E0.01193
G1 X102.728 Y99.148 E0.01316
G1 X102.413 Y98.870 E0.01316
G1 X102.175 Y98.524 E0.01316
G1 X102.026 Y98.132 E0.01316
G1 X101.975 Y97.715 E0.01316
G1 X102.026 Y97.298 E0.01316
G1 X102.175 Y96.906 E0.01316
G1 X102.413 Y96.560 E0.01316
G1 X102.728 Y96.282 E0.01316
G1 X103.099 Y96.087 E0.01316
G1 X103.507 Y95.986 E0.01316
G1 X103.927 Y95.986 E0.01316
G1 X104.334 Y96.087 E0.01316
G1 X104.706 Y96.282 E0.01316
G1 X105.020 Y96.560 E0.01316
G1 X105.259 Y96.906 E0.01316
G1 X105.408 Y97.298 E0.01316
G1 X105.458 Y97.715 E0.01316
G1 X105.408 Y98.132 E0.01316
G1 X105.259 Y98.524 E0.01316
G1 X105.020 Y98.870 E0.01316
G1 X104.706 Y99.148 E0.01316
G1 X104.334 Y99.343 E0.01316
G1 X103.992 Y99.428 E0.01104
G1 X103.774 Y99.808 F10200.000
G1 F8160
G1 X103.469 Y99.434 E-0.12803
G1 X103.099 Y99.343 E-0.09305
G1 X102.728 Y99.148 E-0.10264
G1 X102.413 Y98.870 E-0.10264
G1 X102.175 Y98.524 E-0.10264
G1 X102.026 Y98.132 E-0.10264
G1 X101.975 Y97.715 E-0.10264
G1 X101.988 Y97.611 E-0.02573
G1 E-0.04000 F2100.00000
G1 Z0.800 F10200.000
G1 X113.963 Y99.428
G1 Z0.200
G1 E0.80000 F2100.00000
G1 F1800
G1 X113.963 Y99.413 E0.00046
G1 X141.137 Y99.413 E0.85203
G1 X141.137 Y110.587 E0.35036
G1 X113.963 Y110.587 E0.85203
G1 X113.963 Y99.488 E0.34802
G1 X114.340 Y99.790 F10200.000
G1 F1800
G1 X140.760 Y99.790 E0.82838
G1 X140.760 Y110.210 E0.32671
G1 X114.340 Y110.210 E0.82838
G1 X114.340 Y99.850 E0.32483
G1 X114.185 Y99.421 F10200.000
G1 F8160
G1 X117.449 Y99.843 E-0.76000
G1 E-0.04000 F2100.00000
G1 Z0.800 F10200.000
G1 X99.237 Y95.287
G1 Z0.200
G1 E0.80000 F2100.00000
G1 F1800
G1 X150.763 Y95.287 E1.61556
G1 X150.763 Y114.713 E0.60908
G1 X99.237 Y114.713 E1.61556
G1 X99.237 Y95.347 E0.60720
G1 X98.860 Y94.910 F10200.000
G1 F1800
G1 X151.140 Y94.910 E1.63920
G1 X151.140 Y115.090 E0.63273
G1 X98.860 Y115.090 E1.63920
G1 X98.860 Y94.970 E0.63085
G1 X99.257 Y94.959 F10200.000
G1 F8160
G1 X101.969 Y94.966 E-0.76000
G1 E-0.04000 F2100.00000
G1 Z0.800 F10200.000
G1 X102.338 Y95.972
G1 Z0.200
G1 E0.80000 F2100.00000
G1 F1800
G1 X101.936 Y95.570 E0.01787
G1 X101.401 Y95.570 E0.01681
G1 X101.934 Y96.103 E0.02370
G1 X101.712 Y96.415 E0.01205
G1 X100.867 Y95.570 E0.03757
G1 X100.332 Y95.570 E0.01681
G1 X101.524 Y96.762 E0.05298
G1 X101.379 Y97.151 E0.01308
G1 X99.797 Y95.570 E0.07031
G1 X99.520 Y95.570 E0.00873
G1 X99.520 Y95.827 E0.00808
G1 X101.321 Y97.628 E0.08008
G1 X101.311 Y97.715 E0.00275
G1 X101.371 Y98.213 E0.01576
G1 X99.520 Y96.362 E0.08230
G1 X99.520 Y96.896 E0.01681
G1 X117.054 Y114.430 E0.77950
G1 X116.519 Y114.430 E0.01681
G1 X99.520 Y97.431 E0.75573
G1 X99.520 Y97.966 E0.01681
G1 X115.984 Y114.430 E0.73196
G1 X115.450 Y114.430 E0.01681
G1 X99.520 Y98.500 E0.70819
